;FLAVOR:Marlin
;TIME:2812
;Filament used: 5.27529m
;Layer height: 0.4
;MINX:66.132
;MINY:53.605
;MINZ:0.2
;MAXX:153.864
;MAXY:166.393
;MAXZ:11.1
;TARGET_MACHINE.NAME:Anycubic Kobra 2
;Generated with Cura_SteamEngine 5.10.0
G21 ;metric values
G90 ; use absolute coordinates
M82 ; use absolute distances for extrusion
M104 S205 ; set extruder temp
M140 S60 ; set bed temp
M190 S60 ; wait for bed temp
M109 S205 ; wait for extruder temp
G28 ; home all axes
M300 S1318 P266
G1 Z5 F5000 ; lift nozzle
G1 X5 Y0  F3000
G1 Z0.3 ; set nozzle height
G92 E0
G1 X50 Y0 E20 F500 ; Extrude 20mm of filament in a 5cm line 
G92 E0 ; zero the extruded length again 
G1 E-4.5 F4800 ; Retract a little 
G92 E0
G1 X120 F4000 ; Quickly wipe away from the filament line
M117 ; Printing…
G5
M82 ;absolute extrusion mode
G92 E0
G92 E0
G1 F4800 E-2
;LAYER_COUNT:28
;LAYER:0
M107
M204 S3000
M205 X10 Y10
G0 F7500 X108.937 Y59.74 Z0.3
M204 S2500
M205 X8 Y8
;TYPE:SKIRT
G1 F4800 E0
G1 F2400 X109.146 Y59.51 E0.0155
G1 X109.536 Y59.211 E0.04002
G1 X109.564 Y59.184 E0.04196
G1 X110.399 Y58.233 E0.1051
G1 X110.6 Y58.144 E0.11607
G1 X111.049 Y58.068 E0.13879
G1 X111.091 Y58.056 E0.14097
G1 X111.561 Y57.865 E0.16628
G1 X111.581 Y57.856 E0.16737
G1 X111.886 Y57.691 E0.18467
G1 X112.532 Y57.447 E0.21912
G1 X112.573 Y57.426 E0.22142
G1 X118.254 Y53.606 E0.56296
G1 X118.618 Y53.631 E0.58117
G1 X119.048 Y53.72 E0.60307
G1 X119.881 Y54.035 E0.64751
G1 X120.559 Y54.525 E0.68924
G1 X121.155 Y55.137 E0.73186
G1 X121.337 Y55.381 E0.74705
G1 X113.01 Y59.485 E1.2102
G1 X112.366 Y59.524 E1.24239
G1 X112.287 Y59.546 E1.24648
G1 X111.842 Y59.773 E1.2714
G1 X111.781 Y59.821 E1.27527
G1 X111.575 Y60.061 E1.29105
G1 X111.065 Y59.654 E1.3236
G1 X110.989 Y59.616 E1.32784
G1 X110.526 Y59.5 E1.35166
G1 X110.46 Y59.495 E1.35496
G1 X110.052 Y59.529 E1.37538
G1 X109.978 Y59.55 E1.37922
G1 X109.542 Y59.773 E1.40365
G1 X109.481 Y59.821 E1.40753
G1 X109.244 Y60.099 E1.42575
G1 X108.937 Y59.74 E1.44932
M204 S3000
M205 X10 Y10
G1 F4800 E-0.55068
G0 F7500 X110.154 Y59.119
M204 S2500
M205 X8 Y8
G1 F4800 E1.44932
G1 F2400 X110.642 Y58.562 E1.48626
G1 X110.713 Y58.531 E1.49013
G1 X111.116 Y58.463 E1.51052
G1 X111.242 Y58.427 E1.51706
G1 X111.712 Y58.236 E1.54237
G1 X111.771 Y58.208 E1.54563
G1 X112.055 Y58.055 E1.56172
G1 X112.673 Y57.821 E1.59469
G1 X112.796 Y57.758 E1.60158
G1 X118.363 Y54.014 E1.93629
G1 X118.561 Y54.028 E1.94619
G1 X118.94 Y54.106 E1.9655
G1 X119.688 Y54.389 E2.0054
G1 X120.296 Y54.829 E2.04284
G1 X120.703 Y55.247 E2.07195
G1 X112.904 Y59.091 E2.50574
G1 X112.342 Y59.125 E2.53383
G1 X112.105 Y59.19 E2.54609
G1 X111.66 Y59.417 E2.57101
G1 X111.534 Y59.516 E2.579
G1 X111.314 Y59.341 E2.59303
G1 X111.086 Y59.228 E2.60572
G1 X110.623 Y59.112 E2.62954
G1 X110.427 Y59.096 E2.63935
G1 X110.154 Y59.119 E2.65302
M204 S3000
M205 X10 Y10
G1 F4800 E0.65302
G0 F7500 X111.21 Y58.849
M204 S2500
M205 X8 Y8
G1 F4800 E2.65302
G1 F2400 X111.392 Y58.797 E2.66246
G1 X111.862 Y58.606 E2.68777
G1 X111.961 Y58.56 E2.69322
G1 X112.221 Y58.42 E2.70795
G1 X112.815 Y58.195 E2.73964
G1 X113.019 Y58.09 E2.75109
G1 X118.472 Y54.423 E3.07893
G1 X118.506 Y54.425 E3.08063
G1 X118.828 Y54.492 E3.09704
G1 X119.498 Y54.745 E3.13277
G1 X120.032 Y55.132 E3.16567
G1 X112.798 Y58.697 E3.56802
G1 X112.318 Y58.726 E3.59201
G1 X111.924 Y58.833 E3.61238
G1 X111.553 Y59.022 E3.63315
G1 X111.321 Y58.885 E3.64659
G1 X111.21 Y58.849 E3.65242
M204 S3000
M205 X10 Y10
G1 F4800 E1.65242
G0 F7500 X143.199 Y87.887
M204 S2500
M205 X8 Y8
G1 F4800 E3.65242
G1 F2400 X143.424 Y87.797 E3.66451
G1 X144.079 Y88.761 E3.72265
G1 X152.136 Y100.725 E4.44227
G1 X152.136 Y119.849 E5.39637
G1 X144.08 Y131.655 E6.10943
G1 X143.425 Y132.605 E6.167
G1 X143.202 Y132.515 E6.179
G1 X143.437 Y131.139 E6.24864
G1 X143.419 Y131.015 E6.2549
G1 X143.361 Y130.946 E6.25939
G1 X142.669 Y130.422 E6.3027
G1 X142.245 Y130.101 E6.32923
G1 X143.181 Y128.743 E6.41151
G1 X143.216 Y128.623 E6.41775
G1 X143.187 Y128.525 E6.42285
G1 X142.853 Y127.976 E6.45491
G1 X142.857 Y127.952 E6.45612
G1 X143.42 Y124.822 E6.61479
G1 X143.403 Y124.698 E6.62103
G1 X143.3 Y124.602 E6.62806
G1 X143.153 Y124.54 E6.63601
G1 X147.862 Y117.808 E7.04589
G1 X148.448 Y117.135 E7.09041
G1 X148.469 Y117.106 E7.09219
G1 X148.938 Y116.319 E7.1379
G1 X148.953 Y116.287 E7.13966
G1 X149.223 Y115.562 E7.17826
G1 X149.227 Y115.54 E7.17938
G1 X149.332 Y115.15 E7.19953
G1 X149.338 Y115.112 E7.20145
G1 X149.361 Y114.716 E7.22124
G1 X149.359 Y114.675 E7.22328
G1 X149.302 Y114.281 E7.24315
G1 X149.293 Y114.243 E7.24509
G1 X149.159 Y113.865 E7.2651
G1 X149.141 Y113.829 E7.26711
G1 X148.933 Y113.485 E7.28717
G1 X148.909 Y113.453 E7.28916
G1 X148.642 Y113.163 E7.30883
G1 X148.612 Y113.136 E7.31084
G1 X148.283 Y112.898 E7.3311
G1 X148.249 Y112.878 E7.33307
G1 X147.891 Y112.715 E7.35269
G1 X147.853 Y112.702 E7.3547
G1 X147.391 Y112.595 E7.37836
G1 X147.346 Y112.59 E7.38062
G1 X144.532 Y112.593 E7.52101
G1 X144.533 Y111.65 E7.56805
G1 X144.521 Y111.583 E7.57145
G1 X144.308 Y110.988 E7.60298
G1 X147.268 Y110.988 E7.75065
G1 X147.288 Y110.987 E7.75165
G1 X147.683 Y110.948 E7.77145
G1 X147.722 Y110.94 E7.77344
G1 X148.102 Y110.822 E7.79329
G1 X148.139 Y110.806 E7.7953
G1 X148.489 Y110.614 E7.81522
G1 X148.522 Y110.592 E7.8172
G1 X148.83 Y110.332 E7.83731
G1 X148.858 Y110.303 E7.83932
G1 X149.105 Y109.992 E7.85913
G1 X149.126 Y109.959 E7.86108
G1 X149.308 Y109.601 E7.88112
G1 X149.323 Y109.563 E7.88316
G1 X149.458 Y109.076 E7.90837
G1 X149.465 Y109.023 E7.91104
G1 X149.464 Y106.242 E8.04978
G1 X149.462 Y106.214 E8.05118
G1 X149.368 Y105.547 E8.08479
G1 X149.364 Y105.525 E8.0859
G1 X149.256 Y105.106 E8.10749
G1 X149.249 Y105.086 E8.10855
G1 X148.941 Y104.268 E8.15216
G1 X148.925 Y104.235 E8.15399
G1 X148.457 Y103.455 E8.19937
G1 X148.437 Y103.427 E8.20108
G1 X148.144 Y103.09 E8.22336
G1 X147.862 Y102.766 E8.24479
G1 X143.148 Y95.936 E8.65882
G1 X143.298 Y95.874 E8.66692
G1 X143.393 Y95.792 E8.67318
G1 X143.419 Y95.654 E8.68019
G1 X142.859 Y92.51 E8.83951
G1 X142.852 Y92.469 E8.84159
G1 X143.183 Y91.918 E8.87365
G1 X143.211 Y91.796 E8.8799
G1 X143.177 Y91.702 E8.88489
G1 X142.242 Y90.33 E8.96772
G1 X142.666 Y90.007 E8.99431
G1 X143.359 Y89.478 E9.03781
G1 X143.43 Y89.375 E9.04405
G1 X143.435 Y89.286 E9.0485
G1 X143.199 Y87.887 E9.11928
M204 S3000
M205 X10 Y10
G1 F4800 E7.11928
G0 F7500 X143.805 Y89.072
M204 S2500
M205 X8 Y8
G1 F4800 E9.11928
G1 F2400 X151.736 Y100.849 E9.82765
G1 X151.736 Y119.725 E10.76937
G1 X143.807 Y131.344 E11.47116
G1 X143.831 Y131.206 E11.47815
G1 X143.828 Y130.988 E11.48903
G1 X143.748 Y130.785 E11.49991
G1 X143.602 Y130.627 E11.51065
G1 X142.91 Y130.103 E11.55395
G1 X142.791 Y130.013 E11.56139
G1 X143.51 Y128.97 E11.6246
G1 X143.599 Y128.771 E11.63547
G1 X143.611 Y128.553 E11.64636
G1 X143.528 Y128.317 E11.65885
G1 X143.273 Y127.899 E11.68327
G1 X143.814 Y124.892 E11.8357
G1 X143.812 Y124.674 E11.84658
G1 X143.733 Y124.471 E11.85745
G1 X143.709 Y124.444 E11.85925
G1 X148.176 Y118.058 E12.24806
G1 X148.75 Y117.398 E12.29169
G1 X148.812 Y117.311 E12.29702
G1 X149.281 Y116.524 E12.34273
G1 X149.328 Y116.426 E12.34815
G1 X149.598 Y115.701 E12.38675
G1 X149.609 Y115.64 E12.38984
G1 X149.617 Y115.642 E12.39025
G1 X149.719 Y115.251 E12.41041
G1 X149.737 Y115.135 E12.41627
G1 X149.76 Y114.739 E12.43606
G1 X149.755 Y114.618 E12.4421
G1 X149.698 Y114.224 E12.46196
G1 X149.67 Y114.11 E12.46782
G1 X149.536 Y113.732 E12.48783
G1 X149.483 Y113.622 E12.49392
G1 X149.275 Y113.278 E12.51398
G1 X149.203 Y113.182 E12.51996
G1 X148.936 Y112.892 E12.53963
G1 X148.847 Y112.812 E12.5456
G1 X148.518 Y112.574 E12.56586
G1 X148.415 Y112.514 E12.57181
G1 X148.057 Y112.351 E12.59143
G1 X147.943 Y112.312 E12.59744
G1 X147.481 Y112.205 E12.6211
G1 X147.345 Y112.19 E12.62793
G1 X144.933 Y112.192 E12.74826
G1 X144.933 Y111.651 E12.77525
G1 X144.898 Y111.448 E12.78553
G1 X144.877 Y111.388 E12.7887
G1 X147.268 Y111.388 E12.90799
G1 X147.327 Y111.385 E12.91094
G1 X147.722 Y111.346 E12.93074
G1 X147.841 Y111.322 E12.9368
G1 X148.221 Y111.204 E12.95665
G1 X148.332 Y111.157 E12.96266
G1 X148.682 Y110.965 E12.98258
G1 X148.78 Y110.897 E12.98853
G1 X149.088 Y110.637 E13.00864
G1 X149.171 Y110.552 E13.01456
G1 X149.418 Y110.241 E13.03438
G1 X149.483 Y110.14 E13.04037
G1 X149.665 Y109.782 E13.06041
G1 X149.708 Y109.67 E13.06639
G1 X149.843 Y109.183 E13.0916
G1 X149.865 Y109.023 E13.09966
G1 X149.864 Y106.242 E13.23841
G1 X149.858 Y106.158 E13.24261
G1 X149.764 Y105.491 E13.27621
G1 X149.751 Y105.425 E13.27957
G1 X149.643 Y105.006 E13.30116
G1 X149.624 Y104.945 E13.30434
G1 X149.316 Y104.127 E13.34795
G1 X149.268 Y104.029 E13.3534
G1 X148.8 Y103.249 E13.39878
G1 X148.739 Y103.164 E13.404
G1 X148.446 Y102.827 E13.42628
G1 X148.174 Y102.515 E13.44693
G1 X143.701 Y96.034 E13.8398
G1 X143.763 Y95.949 E13.84505
G1 X143.82 Y95.738 E13.85595
G1 X143.813 Y95.584 E13.86364
G1 X143.272 Y92.546 E14.01759
G1 X143.526 Y92.124 E14.04217
G1 X143.603 Y91.92 E14.05304
G1 X143.601 Y91.702 E14.06392
G1 X143.508 Y91.477 E14.07607
G1 X142.787 Y90.418 E14.13998
G1 X142.909 Y90.325 E14.14764
G1 X143.602 Y89.796 E14.19113
G1 X143.748 Y89.635 E14.20198
G1 X143.827 Y89.431 E14.21289
G1 X143.83 Y89.219 E14.22347
G1 X143.805 Y89.072 E14.23091
M204 S3000
M205 X10 Y10
G0 F7500 X143.952 Y90.005
M204 S2500
M205 X8 Y8
G1 F2400 X151.336 Y100.97 E14.89043
G1 X151.336 Y119.602 E15.81998
G1 X143.956 Y130.417 E16.4732
G1 X143.844 Y130.308 E16.481
G1 X143.337 Y129.924 E16.51273
G1 X143.839 Y129.197 E16.5568
G1 X143.965 Y128.944 E16.57091
G1 X144.015 Y128.667 E16.58495
G1 X143.986 Y128.386 E16.59904
G1 X143.87 Y128.109 E16.61402
G1 X143.693 Y127.819 E16.63097
G1 X144.207 Y124.963 E16.77575
G1 X144.217 Y124.681 E16.78983
G1 X144.168 Y124.483 E16.8
G1 X148.491 Y118.303 E17.17627
G1 X149.051 Y117.66 E17.21881
G1 X149.156 Y117.516 E17.2277
G1 X149.625 Y116.729 E17.27341
G1 X149.703 Y116.566 E17.28243
G1 X149.973 Y115.841 E17.32102
G1 X149.991 Y115.74 E17.32614
G1 X150.004 Y115.743 E17.32681
G1 X150.106 Y115.352 E17.34697
G1 X150.136 Y115.158 E17.35676
G1 X150.159 Y114.762 E17.37655
G1 X150.151 Y114.561 E17.38659
G1 X150.094 Y114.167 E17.40645
G1 X150.047 Y113.976 E17.41626
G1 X149.913 Y113.598 E17.43627
G1 X149.826 Y113.415 E17.44638
G1 X149.618 Y113.071 E17.46643
G1 X149.498 Y112.911 E17.47641
G1 X149.231 Y112.621 E17.49608
G1 X149.081 Y112.488 E17.50608
G1 X148.752 Y112.25 E17.52634
G1 X148.58 Y112.15 E17.53626
G1 X148.222 Y111.987 E17.55589
G1 X148.034 Y111.923 E17.5658
G1 X147.572 Y111.816 E17.58946
G1 X147.345 Y111.79 E17.60086
G1 X145.333 Y111.792 E17.70124
G1 X147.268 Y111.788 E17.79777
G1 X147.366 Y111.783 E17.80267
G1 X147.761 Y111.744 E17.82247
G1 X147.96 Y111.704 E17.8326
G1 X148.34 Y111.586 E17.85245
G1 X148.524 Y111.508 E17.86242
G1 X148.874 Y111.316 E17.88234
G1 X149.038 Y111.203 E17.89227
G1 X149.346 Y110.943 E17.91238
G1 X149.484 Y110.801 E17.92226
G1 X149.731 Y110.49 E17.94207
G1 X149.839 Y110.321 E17.95208
G1 X150.021 Y109.963 E17.97212
G1 X150.094 Y109.777 E17.98209
G1 X150.229 Y109.29 E18.0073
G1 X150.265 Y109.023 E18.02074
G1 X150.264 Y106.242 E18.15948
G1 X150.254 Y106.102 E18.16649
G1 X150.16 Y105.435 E18.20009
G1 X150.138 Y105.325 E18.20569
G1 X150.03 Y104.906 E18.22728
G1 X149.998 Y104.804 E18.23261
G1 X149.69 Y103.986 E18.27622
G1 X149.611 Y103.824 E18.28521
G1 X149.143 Y103.044 E18.33059
G1 X149.041 Y102.902 E18.33931
G1 X148.748 Y102.565 E18.36159
G1 X148.49 Y102.27 E18.38114
G1 X144.169 Y96.008 E18.76072
G1 X144.221 Y95.736 E18.77453
G1 X144.207 Y95.514 E18.78563
G1 X143.692 Y92.625 E18.93203
G1 X143.869 Y92.331 E18.94915
G1 X143.979 Y92.071 E18.96324
G1 X144.012 Y91.79 E18.97735
G1 X143.965 Y91.512 E18.99142
G1 X143.838 Y91.252 E19.00586
G1 X143.33 Y90.507 E19.05084
G1 X143.845 Y90.114 E19.08316
G1 X143.952 Y90.005 E19.09078
M204 S3000
M205 X10 Y10
G1 F4800 E17.09078
G0 F7500 X75.105 Y103.997
M204 S2500
M205 X8 Y8
G1 F4800 E19.09078
G1 F2400 X74.955 Y105.76 E19.17906
G1 X74.984 Y105.882 E19.18531
G1 X75.056 Y105.936 E19.1898
G1 X74.945 Y106.669 E19.22679
G1 X74.97 Y106.799 E19.2334
G1 X75.002 Y106.854 E19.23657
G1 X74.992 Y106.942 E19.24099
G1 X74.991 Y106.968 E19.24229
G1 X75.056 Y110.108 E19.39898
G1 X74.992 Y112.275 E19.50713
G1 X74.992 Y112.281 E19.50743
G1 X74.991 Y113.623 E19.57439
G1 X74.993 Y113.648 E19.57564
G1 X75.002 Y113.721 E19.57931
G1 X74.969 Y113.778 E19.58259
G1 X74.944 Y113.91 E19.5893
G1 X75.056 Y114.636 E19.62594
G1 X74.998 Y114.674 E19.6294
G1 X74.955 Y114.816 E19.63681
G1 X75.105 Y116.578 E19.72503
G1 X74.861 Y116.643 E19.73763
G1 X74.624 Y116.134 E19.76564
G1 X74.478 Y115.821 E19.78287
G1 X74.478 Y114.443 E19.85162
G1 X74.477 Y114.423 E19.85262
G1 X74.438 Y114.028 E19.87242
G1 X74.43 Y113.989 E19.87441
G1 X74.312 Y113.609 E19.89426
G1 X74.296 Y113.572 E19.89627
G1 X74.104 Y113.222 E19.91619
G1 X74.082 Y113.189 E19.91817
G1 X73.822 Y112.881 E19.93827
G1 X73.793 Y112.853 E19.94029
G1 X73.482 Y112.606 E19.9601
G1 X73.449 Y112.585 E19.96205
G1 X73.091 Y112.403 E19.98209
G1 X73.053 Y112.388 E19.98413
G1 X72.575 Y112.256 E20.00887
G1 X72.522 Y112.248 E20.01154
G1 X71.801 Y112.241 E20.04751
G1 X71.796 Y112.241 E20.04776
G1 X71.777 Y112.242 E20.04871
G1 X71.381 Y112.279 E20.06855
G1 X71.343 Y112.286 E20.07048
G1 X70.958 Y112.4 E20.09051
G1 X70.913 Y112.42 E20.09297
G1 X70.417 Y112.715 E20.12176
G1 X70.393 Y112.731 E20.1232
G1 X68.731 Y114.07 E20.22968
G1 X66.134 Y110.96 E20.43182
G1 X66.134 Y109.616 E20.49887
G1 X68.73 Y106.505 E20.70102
G1 X69.492 Y107.12 E20.74988
G1 X70.399 Y107.852 E20.80802
G1 X70.421 Y107.867 E20.80935
G1 X70.745 Y108.077 E20.82862
G1 X70.779 Y108.095 E20.83054
G1 X71.15 Y108.244 E20.85048
G1 X71.198 Y108.256 E20.85295
G1 X71.77 Y108.333 E20.88174
G1 X71.799 Y108.335 E20.88319
G1 X72.298 Y108.33 E20.90809
G1 X72.318 Y108.329 E20.90909
G1 X72.72 Y108.285 E20.92927
G1 X72.759 Y108.276 E20.93126
G1 X73.136 Y108.155 E20.95102
G1 X73.173 Y108.139 E20.95303
G1 X73.522 Y107.943 E20.973
G1 X73.554 Y107.921 E20.97493
G1 X73.856 Y107.663 E20.99475
G1 X73.884 Y107.633 E20.9968
G1 X74.131 Y107.314 E21.01693
G1 X74.152 Y107.281 E21.01888
G1 X74.329 Y106.924 E21.03876
G1 X74.343 Y106.886 E21.04078
G1 X74.471 Y106.402 E21.06575
G1 X74.478 Y106.351 E21.06832
G1 X74.478 Y104.754 E21.148
G1 X74.861 Y103.932 E21.19324
G1 X75.105 Y103.997 E21.20584
M204 S3000
M205 X10 Y10
G1 F4800 E19.20584
G0 F7500 X74.597 Y107.285
M204 S2500
M205 X8 Y8
G1 F4800 E21.20584
G1 F2400 X74.656 Y110.108 E21.34671
G1 X74.592 Y112.263 E21.45427
G1 X74.592 Y112.281 E21.45517
G1 X74.591 Y113.277 E21.50486
G1 X74.455 Y113.029 E21.51897
G1 X74.387 Y112.931 E21.52492
G1 X74.127 Y112.623 E21.54503
G1 X74.042 Y112.54 E21.55096
G1 X73.731 Y112.293 E21.57077
G1 X73.63 Y112.228 E21.57676
G1 X73.272 Y112.046 E21.5968
G1 X73.16 Y112.003 E21.60278
G1 X72.682 Y111.871 E21.62752
G1 X72.678 Y111.885 E21.62825
G1 X72.526 Y111.848 E21.63606
G1 X71.805 Y111.841 E21.67203
G1 X71.796 Y111.841 E21.67248
G1 X71.74 Y111.844 E21.67528
G1 X71.344 Y111.881 E21.69512
G1 X71.23 Y111.903 E21.70091
G1 X70.845 Y112.017 E21.72094
G1 X70.708 Y112.076 E21.72838
G1 X70.212 Y112.371 E21.75718
G1 X70.142 Y112.42 E21.76144
G1 X68.787 Y113.512 E21.84826
G1 X66.534 Y110.814 E22.02362
G1 X66.534 Y109.76 E22.07621
G1 X68.785 Y107.063 E22.25147
G1 X69.241 Y107.431 E22.2807
G1 X70.148 Y108.163 E22.33885
G1 X70.204 Y108.202 E22.34226
G1 X70.528 Y108.412 E22.36152
G1 X70.63 Y108.466 E22.36728
G1 X71.001 Y108.615 E22.38722
G1 X71.145 Y108.653 E22.39466
G1 X71.717 Y108.73 E22.42345
G1 X71.803 Y108.735 E22.42775
G1 X72.302 Y108.73 E22.45264
G1 X72.361 Y108.726 E22.45559
G1 X72.763 Y108.682 E22.47577
G1 X72.881 Y108.657 E22.48179
G1 X73.258 Y108.536 E22.50154
G1 X73.369 Y108.488 E22.50757
G1 X73.718 Y108.292 E22.52754
G1 X73.814 Y108.225 E22.53338
G1 X74.116 Y107.967 E22.5532
G1 X74.2 Y107.878 E22.55931
G1 X74.447 Y107.559 E22.57943
G1 X74.511 Y107.459 E22.58536
G1 X74.597 Y107.285 E22.59504
M204 S3000
M205 X10 Y10
G1 F4800 E20.59504
G0 F7500 X74.22 Y108.404
M204 S2500
M205 X8 Y8
G1 F4800 E22.59504
G1 F2400 X74.255 Y110.105 E22.67992
G1 X74.195 Y112.151 E22.78204
