;FLAVOR:Marlin
;TIME:2422
;Filament used: 4.53859m
;Layer height: 0.4
;MINX:66.132
;MINY:53.587
;MINZ:0.2
;MAXX:153.864
;MAXY:166.409
;MAXZ:8.7
;TARGET_MACHINE.NAME:Anycubic Kobra 2
;Generated with Cura_SteamEngine 5.10.0
G21 ;metric values
G90 ; use absolute coordinates
M82 ; use absolute distances for extrusion
M104 S205 ; set extruder temp
M140 S60 ; set bed temp
M190 S60 ; wait for bed temp
M109 S205 ; wait for extruder temp
G28 ; home all axes
M300 S1318 P266
G1 Z5 F5000 ; lift nozzle
G1 X5 Y0  F3000
G1 Z0.3 ; set nozzle height
G92 E0
G1 X50 Y0 E20 F500 ; Extrude 20mm of filament in a 5cm line 
G92 E0 ; zero the extruded length again 
G1 E-4.5 F4800 ; Retract a little 
G92 E0
G1 X120 F4000 ; Quickly wipe away from the filament line
M117 ; Printing…
G5
M82 ;absolute extrusion mode
G92 E0
G92 E0
G1 F4800 E-2
;LAYER_COUNT:22
;LAYER:0
M107
M204 S3000
M205 X10 Y10
G0 F7500 X109.009 Y59.819 Z0.3
M204 S2500
M205 X8 Y8
;TYPE:SKIRT
G1 F4800 E0
G1 F2400 X109.418 Y59.547 E0.02451
G1 X118.279 Y53.589 E0.55722
G1 X119.053 Y53.723 E0.59641
G1 X119.879 Y54.034 E0.64045
G1 X120.559 Y54.525 E0.68229
G1 X121.155 Y55.137 E0.72491
G1 X121.337 Y55.381 E0.7401
G1 X113.01 Y59.485 E1.20325
G1 X112.366 Y59.524 E1.23544
G1 X112.287 Y59.546 E1.23953
G1 X111.841 Y59.774 E1.26452
G1 X111.781 Y59.821 E1.26832
G1 X111.638 Y59.987 E1.27925
G1 X111.504 Y60.006 E1.286
G1 X111.064 Y59.654 E1.31411
G1 X110.988 Y59.616 E1.31835
G1 X110.526 Y59.5 E1.34212
G1 X110.46 Y59.495 E1.34542
G1 X110.051 Y59.529 E1.3659
G1 X109.977 Y59.55 E1.36973
G1 X109.579 Y59.755 E1.39207
G1 X109.572 Y59.755 E1.39242
G1 X109.551 Y59.769 E1.39368
G1 X109.487 Y59.814 E1.39758
G1 X109.242 Y60.102 E1.41644
G1 X109.009 Y59.819 E1.43473
M204 S3000
M205 X10 Y10
G1 F4800 E-0.56527
G0 F7500 X110.737 Y59.141
M204 S2500
M205 X8 Y8
G1 F4800 E1.43473
G1 F2400 X118.369 Y54.01 E1.89355
G1 X118.948 Y54.11 E1.92286
G1 X119.688 Y54.389 E1.96232
G1 X120.294 Y54.827 E1.99962
G1 X120.703 Y55.247 E2.02887
G1 X112.904 Y59.091 E2.46266
G1 X112.342 Y59.125 E2.49075
G1 X112.105 Y59.19 E2.50301
G1 X111.659 Y59.418 E2.528
G1 X111.534 Y59.516 E2.53592
G1 X111.314 Y59.341 E2.54994
G1 X111.085 Y59.228 E2.56268
G1 X110.737 Y59.141 E2.58058
M204 S3000
M205 X10 Y10
G1 F4800 E0.58058
G0 F7500 X111.871 Y58.861
M204 S2500
M205 X8 Y8
G1 F4800 E2.58058
G1 F2400 X118.459 Y54.432 E2.97663
G1 X118.839 Y54.497 E2.99586
G1 X119.496 Y54.745 E3.0309
G1 X120.032 Y55.132 E3.06388
G1 X112.798 Y58.697 E3.46623
G1 X112.318 Y58.726 E3.49022
G1 X111.923 Y58.834 E3.51065
G1 X111.871 Y58.861 E3.51358
M204 S3000
M205 X10 Y10
G1 F4800 E1.51358
G0 F7500 X143.199 Y87.887
M204 S2500
M205 X8 Y8
G1 F4800 E3.51358
G1 F2400 X143.424 Y87.797 E3.52567
G1 X144.079 Y88.761 E3.58381
G1 X152.136 Y100.725 E4.30343
G1 X152.136 Y119.849 E5.25753
G1 X144.08 Y131.655 E5.97059
G1 X143.425 Y132.605 E6.02816
G1 X143.202 Y132.515 E6.04016
G1 X143.437 Y131.139 E6.1098
G1 X143.419 Y131.015 E6.11605
G1 X143.361 Y130.946 E6.12055
G1 X142.669 Y130.422 E6.16386
G1 X142.245 Y130.101 E6.19039
G1 X143.181 Y128.743 E6.27267
G1 X143.216 Y128.623 E6.27891
G1 X143.187 Y128.525 E6.28401
G1 X142.853 Y127.976 E6.31607
G1 X142.857 Y127.952 E6.31728
G1 X143.42 Y124.822 E6.47594
G1 X143.403 Y124.698 E6.48219
G1 X143.3 Y124.602 E6.48921
G1 X143.153 Y124.54 E6.49717
G1 X147.862 Y117.808 E6.90705
G1 X148.448 Y117.135 E6.95157
G1 X148.469 Y117.106 E6.95335
G1 X148.938 Y116.319 E6.99906
G1 X148.953 Y116.287 E7.00082
G1 X149.223 Y115.562 E7.03942
G1 X149.227 Y115.54 E7.04054
G1 X149.332 Y115.15 E7.06069
G1 X149.338 Y115.112 E7.06261
G1 X149.361 Y114.716 E7.0824
G1 X149.359 Y114.675 E7.08444
G1 X149.302 Y114.281 E7.1043
G1 X149.293 Y114.243 E7.10625
G1 X149.159 Y113.865 E7.12626
G1 X149.141 Y113.829 E7.12827
G1 X148.933 Y113.485 E7.14833
G1 X148.909 Y113.453 E7.15032
G1 X148.642 Y113.163 E7.16999
G1 X148.612 Y113.136 E7.172
G1 X148.283 Y112.898 E7.19226
G1 X148.249 Y112.878 E7.19423
G1 X147.891 Y112.715 E7.21385
G1 X147.853 Y112.702 E7.21586
G1 X147.391 Y112.595 E7.23952
G1 X147.346 Y112.59 E7.24177
G1 X144.532 Y112.593 E7.38217
G1 X144.533 Y111.65 E7.42921
G1 X144.521 Y111.583 E7.43261
G1 X144.308 Y110.988 E7.46414
G1 X147.268 Y110.988 E7.61181
G1 X147.288 Y110.987 E7.61281
G1 X147.683 Y110.948 E7.63261
G1 X147.722 Y110.94 E7.6346
G1 X148.102 Y110.822 E7.65445
G1 X148.139 Y110.806 E7.65646
G1 X148.489 Y110.614 E7.67638
G1 X148.522 Y110.592 E7.67836
G1 X148.83 Y110.332 E7.69847
G1 X148.858 Y110.303 E7.70048
G1 X149.105 Y109.992 E7.72029
G1 X149.126 Y109.959 E7.72224
G1 X149.308 Y109.601 E7.74228
G1 X149.323 Y109.563 E7.74432
G1 X149.458 Y109.076 E7.76953
G1 X149.465 Y109.023 E7.7722
G1 X149.464 Y106.242 E7.91094
G1 X149.462 Y106.214 E7.91234
G1 X149.368 Y105.547 E7.94595
G1 X149.364 Y105.525 E7.94706
G1 X149.256 Y105.106 E7.96865
G1 X149.249 Y105.086 E7.96971
G1 X148.941 Y104.268 E8.01332
G1 X148.925 Y104.235 E8.01514
G1 X148.457 Y103.455 E8.06053
G1 X148.437 Y103.427 E8.06224
G1 X148.144 Y103.09 E8.08452
G1 X147.862 Y102.766 E8.10595
G1 X143.148 Y95.936 E8.51998
G1 X143.298 Y95.874 E8.52808
G1 X143.393 Y95.792 E8.53434
G1 X143.419 Y95.654 E8.54135
G1 X142.859 Y92.51 E8.70067
G1 X142.852 Y92.469 E8.70275
G1 X143.183 Y91.918 E8.73481
G1 X143.211 Y91.796 E8.74106
G1 X143.177 Y91.702 E8.74605
G1 X142.242 Y90.33 E8.82888
G1 X142.666 Y90.007 E8.85547
G1 X143.359 Y89.478 E8.89897
G1 X143.43 Y89.375 E8.90521
G1 X143.435 Y89.286 E8.90966
G1 X143.199 Y87.887 E8.98044
M204 S3000
M205 X10 Y10
G1 F4800 E6.98044
G0 F7500 X143.805 Y89.072
M204 S2500
M205 X8 Y8
G1 F4800 E8.98044
G1 F2400 X151.736 Y100.849 E9.68881
G1 X151.736 Y119.725 E10.63053
G1 X143.807 Y131.344 E11.33232
G1 X143.831 Y131.206 E11.33931
G1 X143.828 Y130.988 E11.35019
G1 X143.748 Y130.785 E11.36107
G1 X143.602 Y130.627 E11.3718
G1 X142.91 Y130.103 E11.41511
G1 X142.791 Y130.013 E11.42255
G1 X143.51 Y128.97 E11.48575
G1 X143.599 Y128.771 E11.49663
G1 X143.611 Y128.553 E11.50752
G1 X143.528 Y128.317 E11.52
G1 X143.273 Y127.899 E11.54443
G1 X143.814 Y124.892 E11.69686
G1 X143.812 Y124.674 E11.70774
G1 X143.733 Y124.471 E11.7186
G1 X143.709 Y124.444 E11.72041
G1 X148.176 Y118.058 E12.10921
G1 X148.75 Y117.398 E12.15285
G1 X148.812 Y117.311 E12.15818
G1 X149.281 Y116.524 E12.20389
G1 X149.328 Y116.426 E12.20931
G1 X149.598 Y115.701 E12.24791
G1 X149.609 Y115.64 E12.251
G1 X149.617 Y115.642 E12.25141
G1 X149.719 Y115.251 E12.27157
G1 X149.737 Y115.135 E12.27743
G1 X149.76 Y114.739 E12.29722
G1 X149.755 Y114.618 E12.30326
G1 X149.698 Y114.224 E12.32312
G1 X149.67 Y114.11 E12.32898
G1 X149.536 Y113.732 E12.34899
G1 X149.483 Y113.622 E12.35508
G1 X149.275 Y113.278 E12.37514
G1 X149.203 Y113.182 E12.38112
G1 X148.936 Y112.892 E12.40079
G1 X148.847 Y112.812 E12.40676
G1 X148.518 Y112.574 E12.42702
G1 X148.415 Y112.514 E12.43296
G1 X148.057 Y112.351 E12.45259
G1 X147.943 Y112.312 E12.4586
G1 X147.481 Y112.205 E12.48226
G1 X147.345 Y112.19 E12.48909
G1 X144.933 Y112.192 E12.60942
G1 X144.933 Y111.651 E12.63641
G1 X144.898 Y111.448 E12.64669
G1 X144.877 Y111.388 E12.64986
G1 X147.268 Y111.388 E12.76915
G1 X147.327 Y111.385 E12.77209
G1 X147.722 Y111.346 E12.7919
G1 X147.841 Y111.322 E12.79795
G1 X148.221 Y111.204 E12.81781
G1 X148.332 Y111.157 E12.82382
G1 X148.682 Y110.965 E12.84374
G1 X148.78 Y110.897 E12.84969
G1 X149.088 Y110.637 E12.8698
G1 X149.171 Y110.552 E12.87572
G1 X149.418 Y110.241 E12.89554
G1 X149.483 Y110.14 E12.90153
G1 X149.665 Y109.782 E12.92156
G1 X149.708 Y109.67 E12.92755
G1 X149.843 Y109.183 E12.95276
G1 X149.865 Y109.023 E12.96082
G1 X149.864 Y106.242 E13.09957
G1 X149.858 Y106.158 E13.10377
G1 X149.764 Y105.491 E13.13737
G1 X149.751 Y105.425 E13.14073
G1 X149.643 Y105.006 E13.16232
G1 X149.624 Y104.945 E13.1655
G1 X149.316 Y104.127 E13.20911
G1 X149.268 Y104.029 E13.21455
G1 X148.8 Y103.249 E13.25994
G1 X148.739 Y103.164 E13.26516
G1 X148.446 Y102.827 E13.28743
G1 X148.174 Y102.515 E13.30809
G1 X143.701 Y96.034 E13.70096
G1 X143.763 Y95.949 E13.70621
G1 X143.82 Y95.738 E13.71711
G1 X143.813 Y95.584 E13.7248
G1 X143.272 Y92.546 E13.87875
G1 X143.526 Y92.124 E13.90332
G1 X143.603 Y91.92 E13.9142
G1 X143.601 Y91.702 E13.92508
G1 X143.508 Y91.477 E13.93723
G1 X142.787 Y90.418 E14.00114
G1 X142.909 Y90.325 E14.0088
G1 X143.602 Y89.796 E14.05229
G1 X143.748 Y89.635 E14.06313
G1 X143.827 Y89.431 E14.07405
G1 X143.83 Y89.219 E14.08463
G1 X143.805 Y89.072 E14.09207
M204 S3000
M205 X10 Y10
G0 F7500 X143.952 Y90.005
M204 S2500
M205 X8 Y8
G1 F2400 X151.336 Y100.97 E14.75159
G1 X151.336 Y119.602 E15.68114
G1 X143.956 Y130.417 E16.33436
G1 X143.844 Y130.308 E16.34216
G1 X143.337 Y129.924 E16.37389
G1 X143.839 Y129.197 E16.41796
G1 X143.965 Y128.944 E16.43206
G1 X144.015 Y128.667 E16.44611
G1 X143.986 Y128.386 E16.4602
G1 X143.87 Y128.109 E16.47518
G1 X143.693 Y127.819 E16.49213
G1 X144.207 Y124.963 E16.63691
G1 X144.217 Y124.681 E16.65099
G1 X144.168 Y124.483 E16.66116
G1 X148.491 Y118.303 E17.03743
G1 X149.051 Y117.66 E17.07997
G1 X149.156 Y117.516 E17.08886
G1 X149.625 Y116.729 E17.13457
G1 X149.703 Y116.566 E17.14358
G1 X149.973 Y115.841 E17.18218
G1 X149.991 Y115.74 E17.1873
G1 X150.004 Y115.743 E17.18797
G1 X150.106 Y115.352 E17.20813
G1 X150.136 Y115.158 E17.21792
G1 X150.159 Y114.762 E17.23771
G1 X150.151 Y114.561 E17.24775
G1 X150.094 Y114.167 E17.26761
G1 X150.047 Y113.976 E17.27742
G1 X149.913 Y113.598 E17.29743
G1 X149.826 Y113.415 E17.30754
G1 X149.618 Y113.071 E17.32759
G1 X149.498 Y112.911 E17.33757
G1 X149.231 Y112.621 E17.35724
G1 X149.081 Y112.488 E17.36724
G1 X148.752 Y112.25 E17.3875
G1 X148.58 Y112.15 E17.39742
G1 X148.222 Y111.987 E17.41705
G1 X148.034 Y111.923 E17.42696
G1 X147.572 Y111.816 E17.45062
G1 X147.345 Y111.79 E17.46201
G1 X145.333 Y111.792 E17.56239
G1 X147.268 Y111.788 E17.65893
G1 X147.366 Y111.783 E17.66383
G1 X147.761 Y111.744 E17.68363
G1 X147.96 Y111.704 E17.69376
G1 X148.34 Y111.586 E17.71361
G1 X148.524 Y111.508 E17.72358
G1 X148.874 Y111.316 E17.74349
G1 X149.038 Y111.203 E17.75343
G1 X149.346 Y110.943 E17.77354
G1 X149.484 Y110.801 E17.78342
G1 X149.731 Y110.49 E17.80323
G1 X149.839 Y110.321 E17.81324
G1 X150.021 Y109.963 E17.83328
G1 X150.094 Y109.777 E17.84324
G1 X150.229 Y109.29 E17.86846
G1 X150.265 Y109.023 E17.8819
G1 X150.264 Y106.242 E18.02064
G1 X150.254 Y106.102 E18.02764
G1 X150.16 Y105.435 E18.06125
G1 X150.138 Y105.325 E18.06685
G1 X150.03 Y104.906 E18.08843
G1 X149.998 Y104.804 E18.09377
G1 X149.69 Y103.986 E18.13738
G1 X149.611 Y103.824 E18.14637
G1 X149.143 Y103.044 E18.19175
G1 X149.041 Y102.902 E18.20047
G1 X148.748 Y102.565 E18.22275
G1 X148.49 Y102.27 E18.2423
G1 X144.169 Y96.008 E18.62187
G1 X144.221 Y95.736 E18.63569
G1 X144.207 Y95.514 E18.64679
G1 X143.692 Y92.625 E18.79319
G1 X143.869 Y92.331 E18.81031
G1 X143.979 Y92.071 E18.8244
G1 X144.012 Y91.79 E18.83851
G1 X143.965 Y91.512 E18.85258
G1 X143.838 Y91.252 E18.86702
G1 X143.33 Y90.507 E18.912
G1 X143.845 Y90.114 E18.94432
G1 X143.952 Y90.005 E18.95194
M204 S3000
M205 X10 Y10
G1 F4800 E16.95194
G0 F7500 X75.105 Y103.998
M204 S2500
M205 X8 Y8
G1 F4800 E18.95194
G1 F2400 X74.955 Y105.76 E19.04017
G1 X74.984 Y105.882 E19.04642
G1 X75.056 Y105.936 E19.05091
G1 X74.945 Y106.669 E19.0879
G1 X74.97 Y106.799 E19.0945
G1 X75.002 Y106.854 E19.09768
G1 X74.992 Y106.942 E19.1021
G1 X74.991 Y106.968 E19.1034
G1 X75.056 Y110.108 E19.26008
G1 X74.992 Y112.275 E19.36824
G1 X74.992 Y112.281 E19.36854
G1 X74.991 Y113.623 E19.4355
G1 X74.993 Y113.648 E19.43675
G1 X75.002 Y113.721 E19.44042
G1 X74.969 Y113.778 E19.4437
G1 X74.944 Y113.91 E19.45041
G1 X75.056 Y114.636 E19.48705
G1 X74.998 Y114.674 E19.49051
G1 X74.955 Y114.816 E19.49792
G1 X75.105 Y116.578 E19.58614
G1 X74.861 Y116.643 E19.59874
G1 X74.624 Y116.134 E19.62675
G1 X74.478 Y115.821 E19.64398
G1 X74.478 Y114.443 E19.71273
G1 X74.477 Y114.423 E19.71373
G1 X74.438 Y114.028 E19.73353
G1 X74.43 Y113.989 E19.73552
G1 X74.312 Y113.609 E19.75537
G1 X74.296 Y113.572 E19.75738
G1 X74.104 Y113.222 E19.7773
G1 X74.082 Y113.189 E19.77927
G1 X73.822 Y112.881 E19.79938
G1 X73.793 Y112.853 E19.80139
G1 X73.482 Y112.606 E19.82121
G1 X73.449 Y112.585 E19.82316
G1 X73.091 Y112.403 E19.8432
G1 X73.053 Y112.388 E19.84523
G1 X72.575 Y112.256 E19.86997
G1 X72.522 Y112.248 E19.87265
G1 X71.801 Y112.241 E19.90862
G1 X71.796 Y112.241 E19.90887
G1 X71.777 Y112.242 E19.90982
G1 X71.381 Y112.279 E19.92966
G1 X71.343 Y112.286 E19.93159
G1 X70.958 Y112.4 E19.95162
G1 X70.913 Y112.42 E19.95408
G1 X70.417 Y112.715 E19.98287
G1 X70.393 Y112.731 E19.98431
G1 X68.731 Y114.07 E20.09079
G1 X66.134 Y110.96 E20.29293
G1 X66.134 Y109.616 E20.35998
G1 X68.73 Y106.505 E20.56213
G1 X69.492 Y107.12 E20.61098
G1 X70.399 Y107.852 E20.66913
G1 X70.421 Y107.867 E20.67046
G1 X70.745 Y108.077 E20.68972
G1 X70.779 Y108.095 E20.69164
G1 X71.15 Y108.244 E20.71159
G1 X71.198 Y108.256 E20.71406
G1 X71.77 Y108.333 E20.74285
G1 X71.799 Y108.335 E20.7443
G1 X72.298 Y108.33 E20.7692
G1 X72.318 Y108.329 E20.7702
G1 X72.72 Y108.285 E20.79037
G1 X72.759 Y108.276 E20.79237
G1 X73.136 Y108.155 E20.81213
G1 X73.173 Y108.139 E20.81414
G1 X73.522 Y107.943 E20.83411
G1 X73.554 Y107.921 E20.83604
G1 X73.856 Y107.663 E20.85586
G1 X73.884 Y107.633 E20.85791
G1 X74.131 Y107.314 E20.87804
G1 X74.152 Y107.281 E20.87999
G1 X74.329 Y106.924 E20.89987
G1 X74.343 Y106.886 E20.90189
G1 X74.471 Y106.402 E20.92686
G1 X74.478 Y106.351 E20.92943
G1 X74.478 Y104.755 E21.00906
G1 X74.862 Y103.933 E21.05432
G1 X75.105 Y103.998 E21.06687
M204 S3000
M205 X10 Y10
G1 F4800 E19.06687
G0 F7500 X74.597 Y107.285
M204 S2500
M205 X8 Y8
G1 F4800 E21.06687
G1 F2400 X74.656 Y110.108 E21.20774
G1 X74.592 Y112.263 E21.3153
G1 X74.592 Y112.281 E21.3162
G1 X74.591 Y113.277 E21.36589
G1 X74.455 Y113.029 E21.38
G1 X74.387 Y112.931 E21.38595
G1 X74.127 Y112.623 E21.40606
G1 X74.042 Y112.54 E21.41199
G1 X73.731 Y112.293 E21.4318
G1 X73.63 Y112.228 E21.4378
G1 X73.272 Y112.046 E21.45783
G1 X73.16 Y112.003 E21.46382
G1 X72.682 Y111.871 E21.48856
G1 X72.678 Y111.885 E21.48928
G1 X72.526 Y111.848 E21.49709
G1 X71.805 Y111.841 E21.53306
G1 X71.796 Y111.841 E21.53351
G1 X71.74 Y111.844 E21.53631
G1 X71.344 Y111.881 E21.55615
G1 X71.23 Y111.903 E21.56194
G1 X70.845 Y112.017 E21.58197
G1 X70.708 Y112.076 E21.58942
G1 X70.212 Y112.371 E21.61821
G1 X70.142 Y112.42 E21.62247
G1 X68.787 Y113.512 E21.70929
G1 X66.534 Y110.814 E21.88466
G1 X66.534 Y109.76 E21.93724
G1 X68.785 Y107.063 E22.1125
G1 X69.241 Y107.431 E22.14174
G1 X70.148 Y108.163 E22.19989
G1 X70.204 Y108.202 E22.20329
G1 X70.528 Y108.412 E22.22255
G1 X70.63 Y108.466 E22.22831
G1 X71.001 Y108.615 E22.24826
G1 X71.145 Y108.653 E22.25569
G1 X71.717 Y108.73 E22.28448
G1 X71.803 Y108.735 E22.28878
G1 X72.302 Y108.73 E22.31368
G1 X72.361 Y108.726 E22.31663
G1 X72.763 Y108.682 E22.3368
G1 X72.881 Y108.657 E22.34282
G1 X73.258 Y108.536 E22.36257
G1 X73.369 Y108.488 E22.36861
G1 X73.718 Y108.292 E22.38858
G1 X73.814 Y108.225 E22.39442
G1 X74.116 Y107.967 E22.41423
G1 X74.2 Y107.878 E22.42034
G1 X74.447 Y107.559 E22.44047
G1 X74.511 Y107.459 E22.44639
G1 X74.597 Y107.285 E22.45607
M204 S3000
M205 X10 Y10
G1 F4800 E20.45607
G0 F7500 X74.22 Y108.404
M204 S2500
M205 X8 Y8
G1 F4800 E22.45607
G1 F2400 X74.255 Y110.105 E22.54095
G1 X74.195 Y112.151 E22.64307
G1 X73.98 Y111.98 E22.65678
G1 X73.811 Y111.872 E22.66679
G1 X73.453 Y111.69 E22.68682
G1 X73.266 Y111.617 E22.69684
G1 X72.788 Y111.485 E22.72158
G1 X72.786 Y111.493 E22.72199
G1 X72.7 Y111.464 E22.72652
G1 X72.53 Y111.448 E22.73504
G1 X71.809 Y111.441 E22.77101
G1 X71.796 Y111.441 E22.77166
G1 X71.703 Y111.445 E22.7763
G1 X71.307 Y111.482 E22.79614
G1 X71.116 Y111.519 E22.80585
G1 X70.731 Y111.633 E22.82588
G1 X70.504 Y111.733 E22.83826
G1 X70.008 Y112.028 E22.86705
G1 X69.891 Y112.108 E22.87412
G1 X68.841 Y112.954 E22.94139
G1 X66.934 Y110.67 E23.08984
G1 X66.934 Y109.906 E23.12795
G1 X68.841 Y107.621 E23.27644
G1 X68.99 Y107.742 E23.28601
G1 X69.897 Y108.474 E23.34416
G1 X69.987 Y108.536 E23.34961
G1 X70.31 Y108.748 E23.36889
G1 X70.481 Y108.837 E23.37851
G1 X70.852 Y108.986 E23.39845
G1 X71.092 Y109.049 E23.41083
G1 X71.664 Y109.126 E23.43963
