;FLAVOR:Marlin
;TIME:122
;Filament used: 0.242758m
;Layer height: 0.4
;MINX:90.889
;MINY:103.13
;MINZ:0.3
;MAXX:129.137
;MAXY:116.862
;MAXZ:4.7
;TARGET_MACHINE.NAME:Anycubic Kobra 2
;Generated with Cura_SteamEngine 5.10.0
G21 ;metric values
G90 ; use absolute coordinates
M82 ; use absolute distances for extrusion
M104 S205 ; set extruder temp
M140 S60 ; set bed temp
M190 S60 ; wait for bed temp
M109 S205 ; wait for extruder temp
G28 ; home all axes
M300 S1318 P266
G1 Z5 F5000 ; lift nozzle
G1 X5 Y0  F3000
G1 Z0.3 ; set nozzle height
G92 E0
G1 X50 Y0 E20 F500 ; Extrude 20mm of filament in a 5cm line 
G92 E0 ; zero the extruded length again 
G1 E-4.5 F4800 ; Retract a little 
G92 E0
G1 X120 F4000 ; Quickly wipe away from the filament line
M117 ; Printing…
G5
M82 ;absolute extrusion mode
G92 E0
G92 E0
;LAYER_COUNT:12
;LAYER:0
M106 S88.6
M204 S3000
M205 X10 Y10
;MESH:Broadhead-Arrow.stl
G0 F7500 X102.883 Y113.801 Z0.3
M204 S2500
M205 X8 Y8
;TYPE:WALL-OUTER
G1 F2400 X102.883 Y106.295 E0.37448
G1 X102.78 Y106.084 E0.38619
G1 X102.632 Y106.02 E0.39423
G1 X100.468 Y106.02 E0.5022
G1 X100.344 Y106.062 E0.50873
G1 X95.554 Y109.806 E0.81204
G1 X95.468 Y110.017 E0.82341
G1 X95.533 Y110.221 E0.83409
G1 X100.403 Y114.02 E1.14224
G1 X102.605 Y114.019 E1.2521
G1 X102.847 Y113.89 E1.26578
G1 X102.883 Y113.801 E1.27057
M204 S3000
M205 X10 Y10
G0 F7500 X102.883 Y113.601
G0 X101.745 Y115.078
M204 S2500
M205 X8 Y8
G1 F2400 X101.57 Y115.133 E1.27972
G1 X101.42 Y115.244 E1.28903
G1 X101.311 Y115.459 E1.30106
G1 F2274.9 X101.343 Y115.808 E1.3195
G1 F2096.1 X101.412 Y115.935 E1.32776
G1 F2201.8 X101.092 Y115.733 E1.34834
G1 F2400 X93.686 Y110.014 E1.81517
G1 F2376.2 X100.987 Y104.247 E2.28398
G1 F1912.4 X101.33 Y104.093 E2.30752
G1 F1717.4 X101.299 Y104.225 E2.31698
G1 F2082.4 X101.313 Y104.586 E2.33775
G1 F2400 X101.411 Y104.783 E2.34873
G1 X101.623 Y104.934 E2.36171
G1 X101.736 Y104.968 E2.3676
G1 X105.347 Y104.798 E2.54795
G1 X103.862 Y106.041 E2.64457
G1 X103.784 Y106.194 E2.65314
G1 X103.787 Y107.847 E2.7356
G1 X103.873 Y108.038 E2.74605
G1 F2449 X103.965 Y108.107 E2.75168
G1 F2513.1 X116.548 Y108.104 E3.3512
G1 F2560 X129.131 Y108.102 E3.93973
G1 F2580.6 X129.13 Y108.474 E3.95699
G1 F2566.8 X104.228 Y108.475 E5.1186
G1 F2474.2 X103.905 Y108.663 E5.13669
G1 F2400 X103.788 Y108.984 E5.15373
G1 X103.791 Y111.107 E5.25965
G1 X103.953 Y111.456 E5.27885
G1 F2500 X104.201 Y111.584 E5.29221
G1 F2615.8 X116.669 Y111.584 E5.86293
G1 F2651.9 X129.137 Y111.584 E6.42586
G1 F2666.7 X129.136 Y111.944 E6.44203
G1 F2637.4 X124.107 Y111.945 E6.67035
G1 F2580.6 X119.078 Y111.945 E6.90368
G1 F2526.3 X114.049 Y111.946 E7.14203
G1 F2480.6 X109.02 Y111.946 E7.38478
G1 F2430.4 X103.991 Y111.947 E7.63254
G1 F2400 X103.836 Y112.04 E7.64156
G1 X103.784 Y112.176 E7.64882
G1 X103.784 Y113.854 E7.73254
G1 X103.86 Y114.055 E7.74326
G1 X105.264 Y115.24 E7.83492
G1 X101.745 Y115.078 E8.01067
M204 S3000
M205 X10 Y10
G0 F7500 X101.57 Y115.133
G0 X101.557 Y115.143
G0 X101.412 Y115.935
M204 S2500
M205 X8 Y8
G1 F2008.4 X101.54 Y116.026 E8.02003
G1 F2152.5 X101.73 Y116.072 E8.03091
G1 F2352.9 X106.349 Y116.294 E8.26623
M204 S3000
M205 X10 Y10
G0 F7500 X111.064 Y115.174
M204 S2500
M205 X8 Y8
G1 F2400 X111.064 Y116.165 E8.31567
G1 X110.962 Y116.514 E8.33381
G1 F2388.1 X106.379 Y116.295 E8.56386
G1 X109.446 Y114.52 E8.74154
G1 F2400 X110.41 Y114.52 E8.78963
G1 X110.635 Y114.579 E8.80124
G1 X110.785 Y114.665 E8.80986
G1 X111.005 Y114.949 E8.82778
G1 X111.064 Y115.174 E8.83939
M204 S3000
M205 X10 Y10
G0 F7500 X111.064 Y115.374
G0 X110.717 Y105.416
M204 S2500
M205 X8 Y8
G1 F2400 X110.407 Y105.52 E8.8557
G1 X109.446 Y105.52 E8.90365
G1 F2341.5 X106.429 Y103.765 E9.08213
G1 F2258.8 X106.314 Y103.733 E9.08846
G1 F2313.3 X110.942 Y103.494 E9.32833
G1 F2400 X111.024 Y103.631 E9.3363
G1 X111.064 Y103.811 E9.3455
G1 X111.064 Y104.859 E9.39778
G1 X110.957 Y105.18 E9.41466
G1 X110.717 Y105.416 E9.43145
M204 S3000
M205 X10 Y10
G0 F7500 X110.528 Y105.479
G0 X106.314 Y103.733
M204 S2500
M205 X8 Y8
G1 F2227.4 X101.696 Y103.957 E9.67999
G1 F1867.7 X101.33 Y104.093 E9.70503
M204 S3000
M205 X10 Y10
G0 F7500 X102.683 Y105.655
M204 S2500
M205 X8 Y8
;TYPE:SKIN
G1 F2580.6 X101.552 Y105.668 E9.7575
G1 F2051.3 X100.862 Y105.56 E9.79827
G1 F1714.3 X100.468 Y105.56 E9.82579
G1 F1566.1 X100.023 Y105.657 E9.86061
G1 F1558.4 X100.281 Y105.39 E9.88914
G1 F1702.1 X100.939 Y104.865 E9.94835
G1 F1714.3 X101.069 Y105.093 E9.96669
G1 F1959.2 X101.397 Y105.25 E9.98891
G1 F2474.2 X101.685 Y105.315 E10.0032
G1 F2651.9 X102.62 Y105.288 E10.04543
G1 F2142.9 X103.286 Y105.337 E10.08275
G1 F1814.7 X104.045 Y105.302 E10.13288
G1 X103.525 Y105.732 E10.1774
G1 F1745.5 X103.318 Y106.147 E10.20921
G1 X103.103 Y105.781 E10.23833
G1 F2142.9 X102.683 Y105.655 E10.26283
M204 S3000
M205 X10 Y10
G0 F7500 X103.318 Y106.147
M204 S2500
M205 X8 Y8
G1 F1717.4 X103.332 Y106.272 E10.2716
G1 F1748.6 X103.336 Y107.923 E10.38465
M204 S3000
M205 X10 Y10
G0 F7500 X103.699 Y108.358
M204 S2500
M205 X8 Y8
G1 F2566.8 X103.592 Y108.47 E10.39188
G1 F2051.3 X103.342 Y108.897 E10.42076
G1 X103.248 Y108.453 E10.44725
G1 F2073.4 X103.336 Y107.923 E10.47828
G1 X103.58 Y108.259 E10.50226
G1 F2566.8 X103.699 Y108.358 E10.50948
M204 S3000
M205 X10 Y10
G0 F7500 X103.342 Y108.897
M204 S2500
M205 X8 Y8
G1 F1726.6 X103.334 Y108.989 E10.51588
G1 F1736 X103.338 Y111.184 E10.66728
M204 S3000
M205 X10 Y10
G0 F7500 X103.688 Y111.707
M204 S2500
M205 X8 Y8
G1 F2601.6 X103.566 Y111.793 E10.67415
G1 F2105.3 X103.332 Y112.18 E10.69987
G1 X103.244 Y111.623 E10.73194
G1 F2077.9 X103.338 Y111.184 E10.75781
G1 X103.688 Y111.707 E10.79408
M204 S3000
M205 X10 Y10
G0 F7500 X103.332 Y112.18
M204 S2500
M205 X8 Y8
G1 F1761.5 X103.331 Y113.86 E10.90827
M204 S3000
M205 X10 Y10
G0 F7500 X101.701 Y114.719
M204 S2500
M205 X8 Y8
G1 F2500 X101.392 Y114.788 E10.92344
G1 F2033.9 X101.121 Y114.916 E10.94108
G1 F1828.6 X101.002 Y115.103 E10.9556
G1 F1821.6 X100.408 Y114.642 E11.00502
G1 F1739.1 X100.142 Y114.407 E11.02946
G1 F1720.4 X100.402 Y114.462 E11.04795
G1 F1804.5 X100.942 Y114.461 E11.08378
G1 F2191.8 X101.671 Y114.372 E11.1239
G1 F2666.7 X102.681 Y114.381 E11.16926
G1 F2157.3 X103.105 Y114.25 E11.19389
G1 F1801.1 X103.331 Y113.86 E11.22385
G1 X103.509 Y114.335 E11.25757
G1 F1846.2 X103.987 Y114.737 E11.29808
G1 X103.265 Y114.703 E11.34496
G1 F2152.5 X102.663 Y114.75 E11.37855
G1 F2659.3 X101.701 Y114.719 E11.42189
M204 S3000
M205 X10 Y10
G0 F7500 X100.142 Y114.407
M204 S2500
M205 X8 Y8
G1 F1643.8 X97.686 Y112.498 E11.64847
G1 F1594.7 X95.229 Y110.589 E11.88209
M104 S200
M204 S3000
M205 X10 Y10
G0 F7500 X95.038 Y110.008
M204 S2500
M205 X8 Y8
G1 F1818.2 X95.135 Y110.421 E11.91003
G1 F1646.7 X95.229 Y110.589 E11.92403
G1 F1699.1 X94.948 Y110.429 E11.94681
G1 F1882.4 X94.382 Y110.006 E11.99176
G1 F1920 X94.829 Y109.654 E12.02724
G1 F1684.2 X95.189 Y109.455 E12.05649
G1 F1627.1 X95.086 Y109.722 E12.07754
G1 F1846.2 X95.038 Y110.008 E12.09635
M204 S3000
M205 X10 Y10
G0 F7500 X95.189 Y109.455
M204 S2500
M205 X8 Y8
G1 F1470.1 X100.023 Y105.657 E12.59704
M204 S3000
M205 X10 Y10
G0 F7500 X109.55 Y105.14
M204 S2500
M205 X8 Y8
G1 F2400 X107.633 Y104.033 E12.70749
G1 X110.684 Y103.884 E12.85988
G1 X110.683 Y104.796 E12.90538
G1 X110.621 Y104.982 E12.91516
G1 X110.524 Y105.077 E12.92194
G1 X110.342 Y105.14 E12.93155
G1 X109.55 Y105.14 E12.97106
M204 S3000
M205 X10 Y10
G0 F7500 X110.284 Y104.305
M204 S2500
M205 X8 Y8
G1 F2400 X109.977 Y104.32 E12.98639
G1 X110.283 Y104.626 E13.00798
G1 X110.282 Y104.74 E13.01367
G1 X109.657 Y104.74 E13.04485
G1 X109.01 Y104.366 E13.08214
M204 S3000
M205 X10 Y10
G0 F7500 X109.437 Y104.346
M204 S2500
M205 X8 Y8
G1 F2400 X109.831 Y104.74 E13.10993
M204 S3000
M205 X10 Y10
G0 F7500 X109.546 Y114.9
M204 S2500
M205 X8 Y8
G1 F2400 X110.438 Y114.9 E13.15444
G1 X110.608 Y115.032 E13.16517
G1 X110.684 Y115.233 E13.1759
G1 X110.684 Y116.119 E13.2201
G1 X107.685 Y115.974 E13.36989
G1 X109.546 Y114.9 E13.47709
M204 S3000
M205 X10 Y10
G0 F7500 X110.283 Y115.374
M204 S2500
M205 X8 Y8
G1 F2400 X110.209 Y115.3 E13.48231
G1 X109.648 Y115.304 E13.5103
G1 X110.029 Y115.686 E13.53722
G1 X109.063 Y115.641 E13.58546
G1 X109.289 Y115.512 E13.59845
G1 X109.436 Y115.659 E13.60882
M204 S3000
M205 X10 Y10
;MESH:NONMESH
G0 F600 X109.436 Y115.659 Z0.7
G0 F7500 X109.667 Y116.523
;TIME_ELAPSED:10.117644
;LAYER:1
M106 S255
M204 S2500
M205 X8 Y8
;TYPE:WALL-OUTER
;MESH:Broadhead-Arrow.stl
G1 F2341.5 X106.361 Y116.334 E13.8346
G1 X109.446 Y114.516 E14.07875
G1 F2400 X110.407 Y114.516 E14.14268
G1 X110.721 Y114.62 E14.16468
G1 X110.969 Y114.87 E14.18811
G1 X111.064 Y115.093 E14.20423
G1 X111.064 Y116.185 E14.27687
G1 X111.022 Y116.407 E14.2919
G1 X110.907 Y116.582 E14.30583
G1 X109.667 Y116.523 E14.38841
M204 S3000
M205 X10 Y10
G0 F7500 X109.468 Y116.512
G0 X106.354 Y116.327
M204 S2500
M205 X8 Y8
G1 F2004.2 X101.729 Y116.106 E14.75725
M204 S3000
M205 X10 Y10
G0 F7500 X101.304 Y115.492
M204 S2500
M205 X8 Y8
G1 F2400 X101.313 Y115.676 E14.7695
G1 F2352.9 X101.476 Y115.957 E14.79154
G1 F2152.5 X101.729 Y116.106 E14.81332
G1 F2191.8 X101.021 Y116.111 E14.86489
G1 F2400 X93.117 Y110.013 E15.52896
G1 X100.838 Y103.901 E16.18401
G1 F2341.5 X101.366 Y103.884 E16.22003
G1 F2069 X101.687 Y103.915 E16.24491
G1 X101.438 Y104.112 E16.26941
G1 F2341.5 X101.358 Y104.236 E16.27947
G1 F2400 X101.302 Y104.448 E16.29406
G1 X101.313 Y104.582 E16.303
G1 X101.463 Y104.825 E16.322
G1 X101.756 Y104.964 E16.34357
G1 X105.635 Y104.779 E16.6019
G1 X103.86 Y106.261 E16.75572
G1 X103.788 Y106.42 E16.76733
G1 X103.787 Y107.847 E16.86225
G1 X103.901 Y108.065 E16.87862
G1 F2077.9 X104.06 Y108.188 E16.89406
G1 F1821.6 X112.388 Y108.187 E17.62393
G1 F1797.8 X120.716 Y108.185 E18.36349
G1 F1774.5 X129.044 Y108.184 E19.11275
G1 F1764.7 X129.044 Y108.728 E19.16197
G1 F1751.8 X104.196 Y108.736 E21.42644
G1 F2016.8 X103.948 Y108.966 E21.45321
G1 F2400 X103.788 Y109.336 E21.48002
G1 X103.791 Y110.767 E21.57522
G1 F2274.9 X104 Y111.164 E21.6067
G1 F1931.6 X104.166 Y111.307 E21.62481
G1 F1755 X116.607 Y111.312 E22.75652
G1 F1777.8 X129.048 Y111.316 E23.87376
G1 F1791 X129.048 Y111.852 E23.92153
G1 F1777.8 X116.566 Y111.848 E25.04245
G1 F1755 X104.084 Y111.845 E26.17789
G1 F2016.8 X103.865 Y112.011 E26.19964
G1 F2400 X103.784 Y112.172 E26.21163
G1 X103.789 Y113.66 E26.31061
G1 X103.857 Y113.811 E26.32163
G1 X105.553 Y115.248 E26.4695
G1 X101.737 Y115.074 E26.72361
G1 X101.464 Y115.206 E26.74378
G1 X101.304 Y115.492 E26.76558
M204 S3000
M205 X10 Y10
G0 F7500 X101.313 Y115.676
G0 X101.321 Y115.689
G0 X102.882 Y113.8
M204 S2500
M205 X8 Y8
G1 F2400 X102.88 Y106.276 E27.26607
G1 X102.794 Y106.098 E27.27922
G1 X102.632 Y106.016 E27.2913
G1 X100.468 Y106.016 E27.43525
G1 X100.344 Y106.058 E27.44396
G1 X95.554 Y109.803 E27.84842
G1 X95.468 Y110.013 E27.86352
G1 X95.58 Y110.254 E27.88119
G1 X100.403 Y114.016 E28.28808
G1 X102.606 Y114.015 E28.43462
G1 X102.834 Y113.902 E28.45155
G1 X102.882 Y113.8 E28.45905
M204 S3000
M205 X10 Y10
G0 F7500 X102.882 Y113.6
G0 X109.672 Y103.479
M204 S2500
M205 X8 Y8
G1 F2400 X110.899 Y103.421 E28.54076
G1 X111.056 Y103.794 E28.56768
G1 X111.063 Y104.849 E28.63786
G1 X110.959 Y105.174 E28.66056
G1 X110.722 Y105.411 E28.68285
G1 X110.4 Y105.515 E28.70536
G1 X109.446 Y105.516 E28.76882
G1 F2253.5 X106.344 Y103.686 E29.02397
G1 F2096.1 X106.46 Y103.665 E29.03295
G1 F2138.1 X108.066 Y103.572 E29.15307
G1 F2307.7 X109.673 Y103.479 E29.26443
M204 S3000
M205 X10 Y10
G0 F7500 X109.672 Y103.479
G0 X109.87 Y103.47
G0 X106.312 Y103.692
M204 S2500
M205 X8 Y8
G1 F1893.5 X101.687 Y103.915 E29.65484
M204 S3000
M205 X10 Y10
G0 F7500 X94.651 Y109.997
M204 S2500
M205 X8 Y8
;TYPE:SKIN
G1 F1519 X94.612 Y110.065 E29.66308
G1 X94.533 Y110.065 E29.67138
G1 X94.493 Y109.997 E29.67967
G1 X94.532 Y109.929 E29.68791
G1 X94.611 Y109.929 E29.69622
G1 X94.651 Y109.997 E29.70451
M204 S3000
M205 X10 Y10
G0 F7500 X100.784 Y114.839
M204 S2500
M205 X8 Y8
G1 F1967.2 X100.754 Y114.892 E29.70945
G1 X100.693 Y114.892 E29.7144
G1 X100.662 Y114.839 E29.71938
G1 X100.692 Y114.786 E29.72433
G1 X100.753 Y114.786 E29.72928
G1 X100.784 Y114.839 E29.73426
M204 S3000
M205 X10 Y10
G0 F7500 X101.398 Y114.789
M204 S2500
M205 X8 Y8
G1 F2400 X101.134 Y115.016 E29.75742
G1 X100.946 Y115.38 E29.78467
G1 X100.931 Y115.561 E29.79675
G1 X100.251 Y115.035 E29.85394
G1 F2222.2 X99.919 Y114.74 E29.88585
G1 F2025.3 X94.938 Y110.883 E30.38243
G1 F2171.9 X94.607 Y110.679 E30.41101
G1 F2400 X93.734 Y110.006 E30.48434
G1 F2376.2 X94.57 Y109.345 E30.55594
G1 F2123.9 X94.905 Y109.14 E30.58546
G1 F1904.8 X99.755 Y105.312 E31.10333
G1 F2105.3 X100.207 Y104.883 E31.15059
G1 F2400 X100.955 Y104.291 E31.21405
G1 X100.953 Y104.679 E31.23986
G1 X101.052 Y104.928 E31.25768
G1 X101.228 Y105.12 E31.27501
G1 F2436.5 X101.466 Y105.26 E31.2931
G1 F2580.6 X101.713 Y105.312 E31.30871
G1 F2659.3 X102.62 Y105.284 E31.36319
G1 F2253.5 X103.145 Y105.318 E31.40046
G1 F1801.1 X103.392 Y105.355 E31.4226
G1 F1649.5 X104.256 Y105.314 E31.50632
G1 X103.527 Y105.921 E31.59813
G1 X103.449 Y106.027 E31.61087
G1 F1708.2 X103.334 Y106.401 E31.64744
G1 F1720.4 X103.318 Y106.102 E31.67523
G1 F1660.9 X103.17 Y105.819 E31.70592
G1 F2016.8 X102.692 Y105.651 E31.74603
G1 F2666.7 X101.772 Y105.662 E31.80111
G1 F2566.8 X101.141 Y105.636 E31.84039
G1 F2400 X100.468 Y105.636 E31.88516
G1 F2105.3 X100.128 Y105.669 E31.91106
G1 F1904.8 X95.243 Y109.499 E32.43134
G1 F2105.3 X95.139 Y109.748 E32.45181
G1 F2352.9 X95.088 Y110.006 E32.46965
G1 F2274.9 X95.18 Y110.389 E32.49729
G1 F2069 X95.277 Y110.545 E32.51147
G1 F2025.3 X100.168 Y114.353 E33.00008
G1 F2191.8 X100.418 Y114.397 E33.01857
G1 F2364.5 X101.264 Y114.395 E33.07569
G1 F2560 X101.667 Y114.368 E33.10088
G1 F2615.8 X102.69 Y114.373 E33.16332
G1 F2016.8 X103.176 Y114.209 E33.20392
G1 F1702.1 X103.307 Y113.983 E33.22842
G1 F1739.1 X103.336 Y113.723 E33.25244
G1 F1726.6 X103.511 Y114.129 E33.29332
G1 F1690.1 X104.211 Y114.721 E33.37991
G1 X103.373 Y114.681 E33.45916
G1 F2042.6 X102.662 Y114.746 E33.51497
G1 F2659.3 X101.697 Y114.715 E33.57293
G1 F2560 X101.398 Y114.789 E33.59214
M204 S3000
M205 X10 Y10
G0 F7500 X103.336 Y113.723
M204 S2500
M205 X8 Y8
G1 F1771.2 X103.334 Y112.172 E33.73194
M204 S3000
M205 X10 Y10
G0 F7500 X103.807 Y111.539
M204 S2500
M205 X8 Y8
G1 F2196.8 X103.621 Y111.691 E33.74939
G1 F1967.2 X103.334 Y112.172 E33.79485
G1 X103.283 Y111.28 E33.86736
G1 F1943.3 X103.34 Y110.847 E33.90324
G1 X103.589 Y111.269 E33.94349
G1 F2196.8 X103.807 Y111.539 E33.96871
M204 S3000
M205 X10 Y10
G0 F7500 X103.34 Y110.847
M204 S2500
M205 X8 Y8
G1 F1742.3 X103.339 Y109.28 E34.1123
M204 S3000
M205 X10 Y10
G0 F7500 X103.614 Y108.747
M204 S2500
M205 X8 Y8
G1 F1943.3 X103.339 Y109.28 E34.16157
G1 F1867.7 X103.303 Y109.025 E34.18358
G1 F2100.7 X103.282 Y108.383 E34.2324
G1 F1951.2 X103.338 Y107.919 E34.27064
G1 X103.642 Y108.37 E34.31514
G1 F2196.8 X103.806 Y108.499 E34.3303
G1 X103.614 Y108.747 E34.3531
M204 S3000
M205 X10 Y10
G0 F7500 X103.338 Y107.919
M204 S2500
M205 X8 Y8
G1 F1761.5 X103.334 Y106.401 E34.49068
M204 S3000
M205 X10 Y10
G0 F7500 X100.699 Y105.156
M204 S2500
M205 X8 Y8
G1 F1714.3 X100.664 Y105.217 E34.49723
G1 X100.594 Y105.217 E34.50375
G1 X100.559 Y105.156 E34.5103
G1 X100.594 Y105.095 E34.51685
G1 X100.664 Y105.095 E34.52337
G1 X100.699 Y105.156 E34.52992
M204 S3000
M205 X10 Y10
G0 F7500 X109.655 Y104.713
M204 S2500
M205 X8 Y8
G1 F2191.8 X108.955 Y104.31 E34.58875
G1 F2171.9 X110.254 Y104.253 E34.68432
G1 F2152.5 X110.256 Y104.709 E34.71815
G1 F2171.9 X109.655 Y104.713 E34.76232
M204 S3000
M205 X10 Y10
G0 F7500 X109.546 Y105.135
M204 S2500
M205 X8 Y8
G1 F2400 X107.51 Y103.962 E34.91863
G1 X110.676 Y103.81 E35.12947
G1 X110.68 Y104.789 E35.1946
G1 X110.619 Y104.981 E35.208
G1 X110.529 Y105.071 E35.21647
G1 X110.337 Y105.132 E35.22987
G1 X109.546 Y105.135 E35.28248
M204 S3000
M205 X10 Y10
G0 F7500 X109.657 Y115.308
M204 S2500
M205 X8 Y8
G1 F2243 X110.268 Y115.312 E35.32597
G1 F2222.2 X110.268 Y115.754 E35.35773
G1 F2243 X108.983 Y115.696 E35.44928
G1 F2264.2 X109.657 Y115.308 E35.50412
M204 S3000
M205 X10 Y10
G0 F7500 X109.55 Y114.896
