;FLAVOR:Marlin
;TIME:1767
;Filament used: 3.41371m
;Layer height: 0.4
;MINX:66.132
;MINY:69.784
;MINZ:0.2
;MAXX:153.866
;MAXY:150.213
;MAXZ:8.3
;TARGET_MACHINE.NAME:Anycubic Kobra 2
;Generated with Cura_SteamEngine 5.10.0
G21 ;metric values
G90 ; use absolute coordinates
M82 ; use absolute distances for extrusion
M104 S205 ; set extruder temp
M140 S60 ; set bed temp
M190 S60 ; wait for bed temp
M109 S205 ; wait for extruder temp
G28 ; home all axes
M300 S1318 P266
G1 Z5 F5000 ; lift nozzle
G1 X5 Y0  F3000
G1 Z0.3 ; set nozzle height
G92 E0
G1 X50 Y0 E20 F500 ; Extrude 20mm of filament in a 5cm line 
G92 E0 ; zero the extruded length again 
G1 E-4.5 F4800 ; Retract a little 
G92 E0
G1 X120 F4000 ; Quickly wipe away from the filament line
M117 ; Printing…
G5
M82 ;absolute extrusion mode
G92 E0
G92 E0
G1 F4800 E-2
;LAYER_COUNT:21
;LAYER:0
M107
M204 S3000
M205 X10 Y10
G0 F7500 X67.955 Y100.415 Z0.3
M204 S2500
M205 X8 Y8
;TYPE:SKIRT
G1 F4800 E0
G1 F2400 X78.496 Y93.027 E0.6422
G1 X78.759 Y92.841 E0.65827
G1 X82.101 Y90.471 E0.86267
G1 X82.276 Y90.601 E0.87355
G1 X82.274 Y90.608 E0.87391
G1 X82.274 Y90.733 E0.88015
G1 X82.384 Y90.854 E0.88831
G1 X83.275 Y91.242 E0.93679
G1 X83.452 Y91.319 E0.94642
G1 X83.47 Y91.494 E0.9552
G1 X83.083 Y91.769 E0.97888
G1 X83.009 Y91.87 E0.98513
G1 X83.009 Y91.995 E0.99137
G1 X83.071 Y92.086 E0.99686
G1 X83.625 Y92.547 E1.03282
G1 X83.869 Y92.75 E1.04865
G1 X83.451 Y94.327 E1.13005
G1 X72.381 Y102.293 E1.81046
G1 X72.363 Y102.307 E1.8116
G1 X72.017 Y102.622 E1.83494
G1 X72.001 Y102.639 E1.83611
G1 X71.55 Y103.156 E1.87034
G1 X71.529 Y103.185 E1.87212
G1 X71.062 Y103.971 E1.91774
G1 X71.047 Y104.003 E1.9195
G1 X70.778 Y104.727 E1.95803
G1 X70.772 Y104.746 E1.95903
G1 X70.669 Y105.138 E1.97925
G1 X70.662 Y105.179 E1.98132
G1 X70.641 Y105.581 E2.00141
G1 X70.643 Y105.62 E2.00335
G1 X70.7 Y106.013 E2.02317
G1 X70.71 Y106.052 E2.02517
G1 X70.844 Y106.423 E2.04485
G1 X70.861 Y106.458 E2.0468
G1 X71.072 Y106.807 E2.06714
G1 X71.096 Y106.839 E2.06914
G1 X71.361 Y107.127 E2.08866
G1 X71.391 Y107.154 E2.09068
G1 X71.718 Y107.39 E2.1108
G1 X71.752 Y107.41 E2.11276
G1 X72.116 Y107.575 E2.1327
G1 X72.154 Y107.588 E2.13471
G1 X72.613 Y107.693 E2.1582
G1 X72.658 Y107.698 E2.16046
G1 X80.412 Y107.69 E2.5473
G1 X81.006 Y109.3 E2.63292
G1 X72.731 Y109.3 E3.04576
G1 X72.711 Y109.301 E3.04676
G1 X72.316 Y109.34 E3.06656
G1 X72.277 Y109.348 E3.06855
G1 X71.897 Y109.466 E3.0884
G1 X71.86 Y109.482 E3.09041
G1 X71.51 Y109.674 E3.11033
G1 X71.477 Y109.696 E3.11231
G1 X71.169 Y109.956 E3.13242
G1 X71.141 Y109.985 E3.13443
G1 X70.894 Y110.296 E3.15424
G1 X70.873 Y110.329 E3.15619
G1 X70.691 Y110.687 E3.17623
G1 X70.676 Y110.724 E3.17822
G1 X70.541 Y111.21 E3.20339
G1 X70.534 Y111.264 E3.2061
G1 X70.535 Y112.709 E3.27819
G1 X70.535 Y114.044 E3.3448
G1 X70.537 Y114.072 E3.3462
G1 X70.632 Y114.744 E3.38006
G1 X70.636 Y114.765 E3.38112
G1 X70.743 Y115.184 E3.4027
G1 X70.75 Y115.206 E3.40385
G1 X71.058 Y116.02 E3.44727
G1 X71.073 Y116.052 E3.44903
G1 X71.538 Y116.828 E3.49417
G1 X71.56 Y116.857 E3.49598
G1 X72.016 Y117.377 E3.53049
G1 X72.032 Y117.394 E3.53165
G1 X72.379 Y117.707 E3.55497
G1 X72.397 Y117.721 E3.55611
G1 X83.455 Y125.569 E4.23261
G1 X83.867 Y127.122 E4.31277
G1 X83.623 Y127.328 E4.3287
G1 X83.07 Y127.792 E4.36472
G1 X83.005 Y127.898 E4.37092
G1 X83.015 Y128.023 E4.37718
G1 X83.084 Y128.109 E4.38268
G1 X83.462 Y128.374 E4.40571
G1 X83.445 Y128.549 E4.41448
G1 X83.272 Y128.624 E4.42389
G1 X82.384 Y129.013 E4.47225
G1 X82.291 Y129.096 E4.47847
G1 X82.274 Y129.259 E4.48665
G1 X82.101 Y129.391 E4.49751
G1 X78.485 Y126.863 E4.71762
G1 X67.955 Y119.584 E5.35627
G1 X67.955 Y100.415 E6.31261
M204 S3000
M205 X10 Y10
G0 F7500 X68.355 Y100.623
M204 S2500
M205 X8 Y8
G1 F2400 X78.725 Y93.354 E6.94442
G1 X78.99 Y93.167 E6.9606
G1 X81.997 Y91.035 E7.1445
G1 X82.036 Y91.092 E7.14795
G1 X82.224 Y91.221 E7.15932
G1 X82.816 Y91.479 E7.19154
G1 X82.699 Y91.6 E7.19994
G1 X82.614 Y91.8 E7.21078
G1 X82.605 Y92.018 E7.22166
G1 X82.675 Y92.225 E7.23257
G1 X82.815 Y92.393 E7.24348
G1 X83.369 Y92.854 E7.27943
G1 X83.417 Y92.894 E7.28255
G1 X83.1 Y94.087 E7.34413
G1 X72.148 Y101.968 E8.01729
G1 X72.094 Y102.011 E8.02074
G1 X71.748 Y102.326 E8.04408
G1 X71.7 Y102.376 E8.04754
G1 X71.249 Y102.893 E8.08177
G1 X71.185 Y102.981 E8.0872
G1 X70.718 Y103.767 E8.13281
G1 X70.672 Y103.864 E8.13817
G1 X70.403 Y104.588 E8.1767
G1 X70.385 Y104.645 E8.17968
G1 X70.282 Y105.037 E8.1999
G1 X70.263 Y105.158 E8.20601
G1 X70.242 Y105.56 E8.2261
G1 X70.247 Y105.677 E8.23194
G1 X70.304 Y106.07 E8.25175
G1 X70.334 Y106.188 E8.25782
G1 X70.468 Y106.559 E8.2775
G1 X70.519 Y106.665 E8.28337
G1 X70.73 Y107.014 E8.30372
G1 X70.801 Y107.11 E8.30968
G1 X71.066 Y107.398 E8.3292
G1 X71.157 Y107.479 E8.33528
G1 X71.484 Y107.715 E8.3554
G1 X71.587 Y107.774 E8.36132
G1 X71.951 Y107.939 E8.38126
G1 X72.065 Y107.978 E8.38727
G1 X72.524 Y108.083 E8.41076
G1 X72.659 Y108.098 E8.41754
G1 X80.134 Y108.09 E8.79047
G1 X80.432 Y108.9 E8.83353
G1 X72.731 Y108.9 E9.21773
G1 X72.672 Y108.903 E9.22068
G1 X72.277 Y108.942 E9.24048
G1 X72.158 Y108.966 E9.24654
G1 X71.778 Y109.084 E9.26639
G1 X71.667 Y109.131 E9.2724
G1 X71.317 Y109.323 E9.29232
G1 X71.219 Y109.391 E9.29827
G1 X70.911 Y109.651 E9.31838
G1 X70.828 Y109.736 E9.32431
G1 X70.581 Y110.047 E9.34412
G1 X70.516 Y110.148 E9.35011
G1 X70.334 Y110.506 E9.37015
G1 X70.291 Y110.617 E9.37609
G1 X70.156 Y111.103 E9.40125
G1 X70.134 Y111.264 E9.40936
G1 X70.135 Y112.709 E9.48145
G1 X70.135 Y114.044 E9.54805
G1 X70.141 Y114.128 E9.55226
G1 X70.236 Y114.8 E9.58612
G1 X70.249 Y114.864 E9.58937
G1 X70.356 Y115.283 E9.61095
G1 X70.376 Y115.347 E9.61429
G1 X70.684 Y116.161 E9.65771
G1 X70.73 Y116.257 E9.66303
G1 X71.195 Y117.033 E9.70816
G1 X71.259 Y117.121 E9.71359
G1 X71.715 Y117.641 E9.74809
G1 X71.764 Y117.691 E9.75158
G1 X72.111 Y118.004 E9.7749
G1 X72.166 Y118.047 E9.77838
G1 X83.105 Y125.811 E10.44762
G1 X83.415 Y126.98 E10.50796
G1 X83.366 Y127.022 E10.51118
G1 X82.813 Y127.486 E10.54719
G1 X82.674 Y127.654 E10.55807
G1 X82.605 Y127.861 E10.56896
G1 X82.614 Y128.079 E10.57984
G1 X82.701 Y128.28 E10.59077
G1 X82.809 Y128.389 E10.59842
G1 X82.223 Y128.646 E10.63035
G1 X82.043 Y128.769 E10.64122
G1 X81.999 Y128.832 E10.64506
G1 X78.714 Y126.535 E10.84504
G1 X68.355 Y119.375 E11.47329
G1 X68.355 Y100.623 E12.40883
M204 S3000
M205 X10 Y10
G0 F7500 X68.755 Y100.831
M204 S2500
M205 X8 Y8
G1 F2400 X78.955 Y93.682 E13.03025
G1 X79.221 Y93.493 E13.04653
G1 X81.984 Y91.535 E13.21548
G1 X82.065 Y91.588 E13.22031
G1 X82.245 Y91.666 E13.2301
G1 X82.204 Y91.829 E13.23849
G1 X82.215 Y92.111 E13.25257
G1 X82.304 Y92.379 E13.26665
G1 X82.559 Y92.701 E13.28715
G1 X82.964 Y93.038 E13.31343
G1 X82.75 Y93.845 E13.35508
G1 X71.914 Y101.643 E14.02113
G1 X71.825 Y101.716 E14.02687
G1 X71.479 Y102.031 E14.05022
G1 X71.398 Y102.113 E14.05597
G1 X70.947 Y102.63 E14.09019
G1 X70.841 Y102.776 E14.0992
G1 X70.374 Y103.562 E14.14481
G1 X70.297 Y103.725 E14.1538
G1 X70.028 Y104.449 E14.19234
G1 X69.998 Y104.543 E14.19726
G1 X69.895 Y104.935 E14.21748
G1 X69.863 Y105.137 E14.22768
G1 X69.842 Y105.539 E14.24777
G1 X69.851 Y105.735 E14.25755
G1 X69.908 Y106.128 E14.27737
G1 X69.957 Y106.324 E14.28745
G1 X70.091 Y106.695 E14.30713
G1 X70.176 Y106.872 E14.31692
G1 X70.387 Y107.221 E14.33727
G1 X70.507 Y107.381 E14.34725
G1 X70.772 Y107.669 E14.36677
G1 X70.923 Y107.803 E14.37684
G1 X71.25 Y108.039 E14.39696
G1 X71.422 Y108.139 E14.40689
G1 X71.786 Y108.304 E14.42683
G1 X71.976 Y108.368 E14.43683
G1 X72.435 Y108.473 E14.46032
G1 X72.659 Y108.498 E14.47157
G1 X79.855 Y108.491 E14.83058
G1 X79.859 Y108.5 E14.83107
G1 X72.731 Y108.5 E15.18668
G1 X72.633 Y108.505 E15.19158
G1 X72.238 Y108.544 E15.21138
G1 X72.039 Y108.584 E15.22151
G1 X71.659 Y108.702 E15.24136
G1 X71.475 Y108.78 E15.25133
G1 X71.125 Y108.972 E15.27125
G1 X70.961 Y109.085 E15.28118
G1 X70.653 Y109.345 E15.30129
G1 X70.515 Y109.487 E15.31117
G1 X70.268 Y109.798 E15.33099
G1 X70.16 Y109.967 E15.34099
G1 X69.978 Y110.325 E15.36103
G1 X69.905 Y110.51 E15.37095
G1 X69.77 Y110.996 E15.39611
G1 X69.734 Y111.264 E15.40961
G1 X69.735 Y112.709 E15.4817
G1 X69.735 Y114.044 E15.5483
G1 X69.745 Y114.184 E15.5553
G1 X69.84 Y114.856 E15.58916
G1 X69.861 Y114.963 E15.5946
G1 X69.968 Y115.382 E15.61618
G1 X70.002 Y115.489 E15.62178
G1 X70.31 Y116.303 E15.6652
G1 X70.387 Y116.463 E15.67406
G1 X70.852 Y117.239 E15.71919
G1 X70.958 Y117.384 E15.72815
G1 X71.414 Y117.904 E15.76266
G1 X71.496 Y117.988 E15.76851
G1 X71.843 Y118.301 E15.79183
G1 X71.934 Y118.373 E15.79762
G1 X82.755 Y126.053 E16.45963
G1 X82.963 Y126.837 E16.5001
G1 X82.556 Y127.179 E16.52662
G1 X82.368 Y127.389 E16.54068
G1 X82.246 Y127.643 E16.55474
G1 X82.199 Y127.922 E16.56885
G1 X82.233 Y128.202 E16.58293
G1 X82.063 Y128.28 E16.59226
G1 X81.981 Y128.331 E16.59707
G1 X78.943 Y126.207 E16.78201
G1 X78.939 Y126.204 E16.78226
G1 X68.755 Y119.165 E17.39989
G1 X68.755 Y100.831 E18.31458
M204 S3000
M205 X10 Y10
G1 F4800 E16.31458
G0 F7500 X121.357 Y72.132
M204 S2500
M205 X8 Y8
G1 F4800 E18.31458
G1 F2400 X121.185 Y71.493 E18.3476
G1 X126.45 Y69.788 E18.6237
G1 X127.18 Y69.871 E18.66035
G1 X127.781 Y70.015 E18.69119
G1 X127.874 Y70.078 E18.69679
G1 X128.918 Y70.372 E18.7509
G1 X128.972 Y70.379 E18.75362
G1 X129.633 Y70.379 E18.78659
G1 X129.633 Y70.755 E18.80535
G1 X125.216 Y71.766 E19.03142
G1 X124.913 Y71.765 E19.04653
G1 X124.881 Y71.767 E19.04813
G1 X124.483 Y71.83 E19.06824
G1 X124.466 Y71.834 E19.06911
G1 X123.105 Y72.17 E19.13905
G1 X123.061 Y72.1 E19.14317
G1 X122.975 Y72.059 E19.14793
G1 X122.601 Y71.981 E19.16699
G1 X122.558 Y71.977 E19.16914
G1 X121.964 Y71.982 E19.19878
G1 X121.916 Y71.988 E19.20119
G1 X121.357 Y72.132 E19.22999
M204 S3000
M205 X10 Y10
G1 F4800 E17.22999
G0 F7500 X122.216 Y71.58
M204 S2500
M205 X8 Y8
G1 F4800 E19.22999
G1 F2400 X126.493 Y70.195 E19.45428
G1 X127.107 Y70.265 E19.48511
G1 X127.656 Y70.397 E19.51328
G1 X127.765 Y70.463 E19.51964
G1 X128.371 Y70.634 E19.55105
G1 X125.171 Y71.366 E19.71482
G1 X124.914 Y71.365 E19.72765
G1 X124.818 Y71.372 E19.73245
G1 X124.42 Y71.435 E19.75255
G1 X124.37 Y71.446 E19.7551
G1 X123.211 Y71.733 E19.81467
G1 X123.056 Y71.668 E19.82306
G1 X122.682 Y71.59 E19.84212
G1 X122.555 Y71.577 E19.84849
G1 X122.216 Y71.58 E19.8654
M204 S3000
M205 X10 Y10
G1 F4800 E17.8654
G0 F7500 X126.088 Y70.746
M204 S2500
M205 X8 Y8
G1 F4800 E19.8654
G1 F2400 X126.531 Y70.602 E19.88864
G1 X126.653 Y70.616 E19.89477
G1 X126.088 Y70.746 E19.92369
M204 S3000
M205 X10 Y10
G1 F4800 E17.92369
G0 F7500 X138.628 Y90.268
M204 S2500
M205 X8 Y8
G1 F4800 E19.92369
G1 F2400 X138.87 Y90.204 E19.93618
G1 X140.15 Y92.948 E20.08724
G1 X145.522 Y104.468 E20.7214
G1 X145.522 Y105.917 E20.79369
G1 X145.523 Y105.937 E20.79469
G1 X145.562 Y106.332 E20.81449
G1 X145.57 Y106.371 E20.81647
G1 X145.688 Y106.751 E20.83633
G1 X145.704 Y106.788 E20.83834
G1 X145.896 Y107.138 E20.85825
G1 X145.918 Y107.171 E20.86023
G1 X146.178 Y107.479 E20.88034
G1 X146.207 Y107.507 E20.88235
G1 X146.518 Y107.754 E20.90217
G1 X146.552 Y107.775 E20.90416
G1 X146.911 Y107.957 E20.92424
G1 X146.947 Y107.972 E20.92619
G1 X147.421 Y108.104 E20.95073
G1 X147.472 Y108.111 E20.9533
G1 X148.197 Y108.121 E20.98948
G1 X148.217 Y108.12 E20.99047
G1 X148.619 Y108.085 E21.01061
G1 X148.658 Y108.078 E21.01258
G1 X149.038 Y107.967 E21.03233
G1 X149.083 Y107.947 E21.03479
G1 X149.583 Y107.653 E21.06373
G1 X149.593 Y107.647 E21.06431
G1 X149.61 Y107.635 E21.06535
G1 X151.267 Y106.305 E21.17135
G1 X153.866 Y109.428 E21.37406
G1 X153.866 Y110.572 E21.43113
G1 X151.268 Y113.695 E21.6338
G1 X149.603 Y112.36 E21.74027
G1 X149.587 Y112.348 E21.74127
G1 X149.256 Y112.133 E21.76096
G1 X149.22 Y112.115 E21.76297
G1 X148.847 Y111.968 E21.78297
G1 X148.801 Y111.956 E21.78535
G1 X148.235 Y111.88 E21.81384
G1 X148.208 Y111.878 E21.81519
G1 X148.202 Y111.878 E21.81549
G1 X147.691 Y111.885 E21.84098
G1 X147.669 Y111.886 E21.84208
G1 X147.273 Y111.932 E21.86197
G1 X147.234 Y111.941 E21.86397
G1 X146.854 Y112.065 E21.88391
G1 X146.818 Y112.081 E21.88588
G1 X146.47 Y112.276 E21.90578
G1 X146.437 Y112.299 E21.90778
G1 X146.139 Y112.558 E21.92748
G1 X146.112 Y112.587 E21.92946
G1 X145.865 Y112.907 E21.94963
G1 X145.843 Y112.941 E21.95165
G1 X145.667 Y113.3 E21.97159
G1 X145.654 Y113.337 E21.97355
G1 X145.529 Y113.811 E21.99801
G1 X145.522 Y113.862 E22.00057
G1 X145.522 Y115.533 E22.08394
G1 X144.201 Y118.366 E22.23989
G1 X139.126 Y129.249 E22.83898
G1 X138.869 Y129.798 E22.86922
G1 X138.627 Y129.734 E22.88171
G1 X138.773 Y127.974 E22.96982
G1 X138.744 Y127.852 E22.97607
G1 X138.625 Y127.764 E22.98346
G1 X138.18 Y127.646 E23.00643
G1 X137.723 Y127.524 E23.03002
G1 X138.792 Y125.233 E23.15615
G1 X138.809 Y125.173 E23.15926
G1 X139.094 Y122.905 E23.27331
G1 X139.589 Y118.965 E23.47142
G1 X139.566 Y118.842 E23.47766
G1 X139.446 Y118.748 E23.48527
G1 X139.199 Y118.677 E23.49809
G1 X139.235 Y118.6 E23.50233
G1 X140.058 Y116.833 E23.59958
G1 X140.066 Y116.814 E23.60061
G1 X140.2 Y116.43 E23.6209
G1 X140.209 Y116.391 E23.62289
G1 X140.263 Y115.994 E23.64288
G1 X140.265 Y115.954 E23.64488
G1 X140.239 Y115.56 E23.66458
G1 X140.232 Y115.521 E23.66656
G1 X140.128 Y115.134 E23.68655
G1 X140.114 Y115.096 E23.68857
G1 X139.935 Y114.739 E23.70849
G1 X139.913 Y114.705 E23.71051
G1 X139.763 Y114.514 E23.72263
G1 X139.751 Y114.134 E23.7416
G1 X139.669 Y111.585 E23.86883
G1 X139.729 Y105.863 E24.15432
G1 X139.732 Y105.503 E24.17228
G1 X139.876 Y105.329 E24.18355
G1 X139.898 Y105.296 E24.18553
G1 X140.087 Y104.942 E24.20555
G1 X140.103 Y104.905 E24.20756
G1 X140.217 Y104.52 E24.22759
G1 X140.224 Y104.481 E24.22957
G1 X140.261 Y104.081 E24.24961
G1 X140.261 Y104.041 E24.25161
G1 X140.217 Y103.647 E24.27139
G1 X140.208 Y103.606 E24.27348
G1 X140.065 Y103.177 E24.29604
G1 X140.056 Y103.155 E24.29723
G1 X139.645 Y102.274 E24.34573
G1 X139.197 Y101.317 E24.39845
G1 X139.444 Y101.246 E24.41127
G1 X139.547 Y101.176 E24.41748
G1 X139.587 Y101.029 E24.42508
G1 X139.093 Y97.093 E24.62299
G1 X138.809 Y94.827 E24.73693
G1 X138.792 Y94.767 E24.74004
G1 X137.724 Y92.477 E24.8661
G1 X138.178 Y92.356 E24.88954
G1 X138.625 Y92.237 E24.91262
G1 X138.73 Y92.169 E24.91886
G1 X138.773 Y92.028 E24.92621
G1 X138.628 Y90.268 E25.01432
M204 S3000
M205 X10 Y10
G1 F4800 E23.01432
G0 F7500 X139.152 Y91.756
M204 S2500
M205 X8 Y8
G1 F4800 E25.01432
G1 F2400 X139.787 Y93.117 E25.08924
G1 X145.122 Y104.558 E25.71905
G1 X145.122 Y105.917 E25.78685
G1 X145.125 Y105.976 E25.78979
G1 X145.164 Y106.371 E25.8096
G1 X145.188 Y106.49 E25.81565
G1 X145.306 Y106.87 E25.8355
G1 X145.353 Y106.981 E25.84152
G1 X145.545 Y107.331 E25.86143
G1 X145.613 Y107.429 E25.86738
G1 X145.873 Y107.737 E25.88749
G1 X145.958 Y107.82 E25.89342
G1 X146.269 Y108.067 E25.91323
G1 X146.371 Y108.132 E25.91927
G1 X146.73 Y108.314 E25.93935
G1 X146.84 Y108.357 E25.94524
G1 X147.314 Y108.489 E25.96979
G1 X147.467 Y108.511 E25.9775
G1 X148.192 Y108.521 E26.01368
G1 X148.252 Y108.519 E26.01667
G1 X148.654 Y108.484 E26.0368
G1 X148.77 Y108.462 E26.04269
G1 X149.15 Y108.351 E26.06244
G1 X149.286 Y108.292 E26.06984
G1 X149.786 Y107.998 E26.09878
G1 X149.815 Y107.98 E26.10048
G1 X149.861 Y107.947 E26.1033
G1 X151.211 Y106.863 E26.18968
G1 X153.466 Y109.572 E26.36553
G1 X153.466 Y110.428 E26.40824
G1 X151.212 Y113.138 E26.58409
G1 X149.853 Y112.048 E26.67101
G1 X149.805 Y112.013 E26.67397
G1 X149.474 Y111.798 E26.69366
G1 X149.367 Y111.743 E26.69967
G1 X148.994 Y111.596 E26.71967
G1 X148.854 Y111.559 E26.72689
G1 X148.288 Y111.483 E26.75538
G1 X148.208 Y111.478 E26.75938
G1 X148.197 Y111.478 E26.75993
G1 X147.686 Y111.485 E26.78543
G1 X147.623 Y111.489 E26.78858
G1 X147.227 Y111.535 E26.80847
G1 X147.11 Y111.561 E26.81445
G1 X146.73 Y111.685 E26.83439
G1 X146.623 Y111.732 E26.84022
G1 X146.275 Y111.927 E26.86012
G1 X146.174 Y111.997 E26.86625
G1 X145.876 Y112.256 E26.88595
G1 X145.795 Y112.342 E26.89184
G1 X145.548 Y112.662 E26.91201
G1 X145.484 Y112.765 E26.91806
G1 X145.308 Y113.124 E26.93801
G1 X145.267 Y113.235 E26.94391
G1 X145.142 Y113.709 E26.96837
