;FLAVOR:Marlin
;TIME:2346
;Filament used: 4.5429m
;Layer height: 0.4
;MINX:65.334
;MINY:69.8
;MINZ:0.2
;MAXX:153.864
;MAXY:150.2
;MAXZ:11.5
;TARGET_MACHINE.NAME:Anycubic Kobra 2
;Generated with Cura_SteamEngine 5.10.0
G21 ;metric values
G90 ; use absolute coordinates
M82 ; use absolute distances for extrusion
M104 S205 ; set extruder temp
M140 S60 ; set bed temp
M190 S60 ; wait for bed temp
M109 S205 ; wait for extruder temp
G28 ; home all axes
M300 S1318 P266
G1 Z5 F5000 ; lift nozzle
G1 X5 Y0  F3000
G1 Z0.3 ; set nozzle height
G92 E0
G1 X50 Y0 E20 F500 ; Extrude 20mm of filament in a 5cm line 
G92 E0 ; zero the extruded length again 
G1 E-4.5 F4800 ; Retract a little 
G92 E0
G1 X120 F4000 ; Quickly wipe away from the filament line
M117 ; Printing…
G5
M82 ;absolute extrusion mode
G92 E0
G92 E0
G1 F4800 E-2
;LAYER_COUNT:29
;LAYER:0
M107
M204 S3000
M205 X10 Y10
G0 F7500 X78.542 Y95.752 Z0.3
M204 S2500
M205 X8 Y8
;TYPE:SKIRT
G1 F4800 E0
G1 F2400 X78.786 Y95.817 E0.0126
G1 X78.634 Y97.58 E0.10088
G1 X78.662 Y97.701 E0.10708
G1 X78.781 Y97.79 E0.11449
G1 X79.229 Y97.91 E0.13763
G1 X79.687 Y98.032 E0.16128
G1 X78.49 Y100.597 E0.30249
G1 X78.473 Y100.657 E0.3056
G1 X78.187 Y102.925 E0.41965
G1 X78.007 Y104.351 E0.49136
G1 X78.005 Y104.374 E0.49251
G1 X77.993 Y105.956 E0.57144
G1 X77.996 Y111.636 E0.85482
G1 X78.009 Y112.958 E0.92077
G1 X77.992 Y114.044 E0.97496
G1 X77.992 Y114.049 E0.97521
G1 X78.005 Y115.622 E1.05369
G1 X78.007 Y115.645 E1.05484
G1 X78.188 Y117.076 E1.1268
G1 X78.474 Y119.345 E1.2409
G1 X78.491 Y119.405 E1.24401
G1 X79.686 Y121.968 E1.3851
G1 X79.23 Y122.09 E1.40865
G1 X78.782 Y122.21 E1.43178
G1 X78.678 Y122.278 E1.43798
G1 X78.635 Y122.42 E1.44539
G1 X78.786 Y124.184 E1.53371
G1 X78.543 Y124.249 E1.54626
G1 X74.478 Y115.533 E2.02607
G1 X74.478 Y114.119 E2.09662
G1 X74.477 Y114.099 E2.09762
G1 X74.438 Y113.704 E2.11742
G1 X74.43 Y113.665 E2.11941
G1 X74.312 Y113.285 E2.13926
G1 X74.296 Y113.248 E2.14127
G1 X74.104 Y112.898 E2.16119
G1 X74.082 Y112.865 E2.16316
G1 X73.822 Y112.557 E2.18327
G1 X73.793 Y112.529 E2.18528
G1 X73.482 Y112.282 E2.2051
G1 X73.448 Y112.261 E2.20709
G1 X73.089 Y112.079 E2.22717
G1 X73.053 Y112.064 E2.22912
G1 X72.578 Y111.932 E2.25371
G1 X72.526 Y111.925 E2.25633
G1 X71.802 Y111.916 E2.29246
G1 X71.783 Y111.917 E2.2934
G1 X71.379 Y111.952 E2.31364
G1 X71.339 Y111.959 E2.31566
G1 X70.961 Y112.072 E2.33534
G1 X70.917 Y112.092 E2.33776
G1 X70.421 Y112.384 E2.36647
G1 X70.397 Y112.4 E2.36791
G1 X68.733 Y113.741 E2.47453
G1 X68.541 Y113.51 E2.48952
G1 X67.117 Y111.802 E2.60046
G1 X67.103 Y111.788 E2.60145
G1 X66.818 Y111.507 E2.62141
G1 X66.787 Y111.482 E2.6234
G1 X66.451 Y111.264 E2.64338
G1 X66.404 Y111.242 E2.64597
G1 X65.998 Y111.109 E2.66729
G1 X65.934 Y111.099 E2.67052
G1 X65.701 Y111.102 E2.68214
G1 X65.537 Y111.035 E2.69098
G1 X65.432 Y110.933 E2.69829
G1 X65.334 Y110.666 E2.71248
G1 X65.334 Y109.322 E2.77953
G1 X65.377 Y109.146 E2.78857
G1 X65.468 Y109.024 E2.79616
G1 X65.622 Y108.937 E2.80498
G1 X65.955 Y108.901 E2.8217
G1 X65.986 Y108.895 E2.82327
G1 X66.299 Y108.81 E2.83945
G1 X66.347 Y108.79 E2.84205
G1 X66.697 Y108.588 E2.86221
G1 X66.733 Y108.562 E2.86442
G1 X67.085 Y108.235 E2.88839
G1 X67.09 Y108.229 E2.88878
G1 X67.107 Y108.212 E2.88998
G1 X68.732 Y106.262 E3.01662
G1 X70.396 Y107.601 E3.12318
G1 X70.417 Y107.616 E3.12446
G1 X70.745 Y107.829 E3.14398
G1 X70.781 Y107.847 E3.14598
G1 X71.151 Y107.993 E3.16583
G1 X71.197 Y108.005 E3.1682
G1 X71.767 Y108.082 E3.1969
G1 X71.796 Y108.084 E3.19835
G1 X72.208 Y108.08 E3.2189
G1 X72.3 Y108.079 E3.22349
G1 X72.322 Y108.078 E3.22459
G1 X72.719 Y108.034 E3.24452
G1 X72.758 Y108.025 E3.24652
G1 X73.136 Y107.904 E3.26632
G1 X73.173 Y107.888 E3.26833
G1 X73.522 Y107.692 E3.2883
G1 X73.554 Y107.67 E3.29023
G1 X73.856 Y107.412 E3.31005
G1 X73.884 Y107.382 E3.3121
G1 X74.131 Y107.063 E3.33223
G1 X74.152 Y107.03 E3.33418
G1 X74.329 Y106.673 E3.35406
G1 X74.343 Y106.635 E3.35608
G1 X74.471 Y106.151 E3.38106
G1 X74.478 Y106.1 E3.38362
G1 X74.478 Y104.467 E3.46509
G1 X78.542 Y95.752 E3.94484
M204 S3000
M205 X10 Y10
G1 F4800 E1.94484
G0 F7500 X78.255 Y97.316
M204 S2500
M205 X8 Y8
G1 F4800 E3.94484
G1 F2400 X78.235 Y97.546 E3.95636
G1 X78.256 Y97.763 E3.96723
G1 X78.354 Y97.958 E3.97812
G1 X78.514 Y98.105 E3.98896
G1 X78.678 Y98.177 E3.9979
G1 X79.122 Y98.296 E4.02083
G1 X78.127 Y100.428 E4.13821
G1 X78.076 Y100.607 E4.14749
G1 X77.79 Y102.875 E4.26154
G1 X77.61 Y104.301 E4.33325
G1 X77.605 Y104.371 E4.33675
G1 X77.593 Y105.953 E4.41568
G1 X77.593 Y105.958 E4.41593
G1 X77.596 Y111.636 E4.69921
G1 X77.596 Y111.642 E4.6995
G1 X77.609 Y112.952 E4.76486
G1 X77.592 Y114.038 E4.81905
G1 X77.592 Y114.052 E4.81975
G1 X77.605 Y115.625 E4.89823
G1 X77.61 Y115.695 E4.90173
G1 X77.791 Y117.126 E4.97369
G1 X78.077 Y119.395 E5.08779
G1 X78.128 Y119.574 E5.09708
G1 X79.122 Y121.704 E5.21434
G1 X78.679 Y121.823 E5.23723
G1 X78.482 Y121.917 E5.24812
G1 X78.331 Y122.075 E5.25902
G1 X78.247 Y122.277 E5.26994
G1 X78.236 Y122.454 E5.27878
G1 X78.256 Y122.686 E5.2904
G1 X74.878 Y115.442 E5.68917
G1 X74.878 Y114.119 E5.75517
G1 X74.875 Y114.06 E5.75812
G1 X74.836 Y113.665 E5.77792
G1 X74.812 Y113.546 E5.78398
G1 X74.694 Y113.166 E5.80383
G1 X74.647 Y113.055 E5.80984
G1 X74.455 Y112.705 E5.82976
G1 X74.387 Y112.607 E5.83571
G1 X74.127 Y112.299 E5.85582
G1 X74.042 Y112.216 E5.86175
G1 X73.731 Y111.969 E5.88156
G1 X73.629 Y111.904 E5.8876
G1 X73.27 Y111.722 E5.90768
G1 X73.16 Y111.679 E5.91357
G1 X72.685 Y111.547 E5.93817
G1 X72.531 Y111.525 E5.94593
G1 X71.807 Y111.516 E5.98205
G1 X71.748 Y111.518 E5.98499
G1 X71.344 Y111.553 E6.00523
G1 X71.224 Y111.576 E6.01132
G1 X70.846 Y111.689 E6.031
G1 X70.714 Y111.747 E6.0382
G1 X70.218 Y112.039 E6.06691
G1 X70.146 Y112.089 E6.07129
G1 X68.789 Y113.183 E6.15825
G1 X67.424 Y111.546 E6.26459
G1 X67.387 Y111.506 E6.2673
G1 X67.382 Y111.501 E6.26766
G1 X67.098 Y111.222 E6.28752
G1 X67.005 Y111.147 E6.29348
G1 X66.669 Y110.929 E6.31346
G1 X66.529 Y110.862 E6.32121
G1 X66.123 Y110.729 E6.34252
G1 X65.929 Y110.699 E6.35231
G1 X65.776 Y110.701 E6.35995
G1 X65.734 Y110.595 E6.36564
G1 X65.734 Y109.372 E6.42665
G1 X65.745 Y109.326 E6.42901
G1 X65.998 Y109.299 E6.44171
G1 X66.091 Y109.281 E6.44643
G1 X66.404 Y109.196 E6.46261
G1 X66.547 Y109.137 E6.47033
G1 X66.897 Y108.935 E6.49049
G1 X67.005 Y108.855 E6.4972
G1 X67.357 Y108.528 E6.52117
G1 X67.377 Y108.508 E6.52258
G1 X67.414 Y108.468 E6.5253
G1 X68.788 Y106.82 E6.63234
G1 X70.145 Y107.912 E6.71924
G1 X70.199 Y107.95 E6.72254
G1 X70.527 Y108.164 E6.74207
G1 X70.634 Y108.219 E6.74808
G1 X71.004 Y108.365 E6.76792
G1 X71.144 Y108.402 E6.77515
G1 X71.714 Y108.479 E6.80384
G1 X71.8 Y108.484 E6.80814
G1 X72.212 Y108.48 E6.8287
G1 X72.304 Y108.479 E6.83329
G1 X72.366 Y108.475 E6.83639
G1 X72.763 Y108.431 E6.85631
G1 X72.88 Y108.406 E6.86228
G1 X73.258 Y108.285 E6.88208
G1 X73.369 Y108.237 E6.88812
G1 X73.718 Y108.041 E6.90809
G1 X73.814 Y107.974 E6.91393
G1 X74.116 Y107.716 E6.93374
G1 X74.2 Y107.627 E6.93985
G1 X74.447 Y107.308 E6.95998
G1 X74.511 Y107.208 E6.9659
G1 X74.688 Y106.851 E6.98578
G1 X74.73 Y106.737 E6.99184
G1 X74.858 Y106.253 E7.01682
G1 X74.878 Y106.1 E7.02452
G1 X74.878 Y104.557 E7.1015
G1 X78.255 Y97.316 E7.50011
M204 S3000
M205 X10 Y10
G1 F4800 E5.50011
G0 F7500 X78.207 Y98.364
M204 S2500
M205 X8 Y8
G1 F4800 E7.50011
G1 F2400 X78.332 Y98.463 E7.50806
G1 X78.559 Y98.557 E7.52032
G1 X77.765 Y100.259 E7.61402
G1 X77.679 Y100.557 E7.62949
G1 X77.393 Y102.825 E7.74354
G1 X77.213 Y104.251 E7.81525
G1 X77.205 Y104.368 E7.8211
G1 X77.193 Y105.95 E7.90003
G1 X77.193 Y105.959 E7.90048
G1 X77.196 Y111.637 E8.18375
G1 X77.196 Y111.646 E8.1842
G1 X77.209 Y112.945 E8.24901
G1 X77.192 Y114.031 E8.3032
G1 X77.192 Y114.055 E8.3044
G1 X77.205 Y115.628 E8.38288
G1 X77.213 Y115.745 E8.38873
G1 X77.394 Y117.176 E8.46069
G1 X77.68 Y119.445 E8.57479
G1 X77.766 Y119.743 E8.59026
G1 X78.559 Y121.444 E8.68389
G1 X78.315 Y121.548 E8.69713
G1 X78.207 Y121.636 E8.70408
G1 X75.278 Y115.355 E9.04983
G1 X75.278 Y114.119 E9.1115
G1 X75.273 Y114.021 E9.11639
G1 X75.234 Y113.626 E9.1362
G1 X75.194 Y113.427 E9.14632
G1 X75.076 Y113.047 E9.16617
G1 X74.998 Y112.863 E9.17614
G1 X74.806 Y112.513 E9.19606
G1 X74.693 Y112.349 E9.206
G1 X74.433 Y112.041 E9.22611
G1 X74.291 Y111.903 E9.23598
G1 X73.98 Y111.656 E9.2558
G1 X73.81 Y111.547 E9.26587
G1 X73.451 Y111.365 E9.28595
G1 X73.267 Y111.294 E9.29579
G1 X72.792 Y111.162 E9.32039
G1 X72.536 Y111.125 E9.33329
G1 X71.812 Y111.116 E9.36942
G1 X71.714 Y111.12 E9.37431
G1 X71.31 Y111.155 E9.39454
G1 X71.11 Y111.193 E9.4047
G1 X70.732 Y111.306 E9.42438
G1 X70.511 Y111.402 E9.4364
G1 X70.015 Y111.694 E9.46512
G1 X69.895 Y111.777 E9.4724
G1 X68.843 Y112.624 E9.53978
G1 X67.731 Y111.29 E9.62642
G1 X67.67 Y111.223 E9.63094
G1 X67.663 Y111.216 E9.63144
G1 X67.379 Y110.937 E9.6513
G1 X67.222 Y110.811 E9.66134
G1 X66.886 Y110.593 E9.68132
G1 X66.653 Y110.482 E9.6942
G1 X66.247 Y110.349 E9.71552
G1 X66.134 Y110.331 E9.72122
G1 X66.134 Y109.679 E9.75375
G1 X66.196 Y109.667 E9.7569
G1 X66.509 Y109.582 E9.77308
G1 X66.747 Y109.483 E9.78594
G1 X67.097 Y109.281 E9.80611
G1 X67.278 Y109.148 E9.81731
G1 X67.63 Y108.821 E9.84128
G1 X67.66 Y108.791 E9.8434
G1 X67.721 Y108.724 E9.84792
G1 X68.843 Y107.378 E9.93534
G1 X69.894 Y108.224 E10.00265
G1 X69.982 Y108.285 E10.00799
G1 X70.309 Y108.5 E10.02752
G1 X70.487 Y108.591 E10.03749
G1 X70.857 Y108.737 E10.05734
G1 X71.09 Y108.798 E10.06935
G1 X71.66 Y108.875 E10.09805
G1 X71.804 Y108.884 E10.10525
G1 X72.216 Y108.88 E10.1258
G1 X72.309 Y108.879 E10.13044
G1 X72.41 Y108.873 E10.13549
G1 X72.807 Y108.829 E10.15542
G1 X73.002 Y108.787 E10.16537
G1 X73.38 Y108.666 E10.18517
G1 X73.565 Y108.586 E10.19523
G1 X73.914 Y108.39 E10.2152
G1 X74.074 Y108.278 E10.22494
G1 X74.376 Y108.02 E10.24476
G1 X74.517 Y107.872 E10.25496
G1 X74.764 Y107.553 E10.27508
G1 X74.869 Y107.385 E10.28497
G1 X75.046 Y107.028 E10.30485
G1 X75.117 Y106.84 E10.31487
G1 X75.245 Y106.356 E10.33985
G1 X75.278 Y106.1 E10.35273
G1 X75.278 Y104.644 E10.42537
G1 X78.207 Y98.364 E10.77108
M204 S3000
M205 X10 Y10
G1 F4800 E8.77108
G0 F7500 X138.919 Y92.062
M204 S2500
M205 X8 Y8
G1 F4800 E10.77108
G1 F2400 X139.027 Y91.949 E10.77888
G1 X139.509 Y91.443 E10.81374
G1 X139.563 Y91.331 E10.81995
G1 X139.503 Y91.16 E10.82899
G1 X138.811 Y90.498 E10.87677
G1 X139.213 Y90.278 E10.89963
G1 X140.034 Y89.83 E10.94629
G1 X140.119 Y89.739 E10.9525
G1 X140.132 Y89.606 E10.95917
G1 X140.028 Y89.195 E10.98032
G1 X140.223 Y89.082 E10.99156
G1 X152.09 Y100.43 E11.81074
G1 X152.09 Y119.57 E12.76564
G1 X140.224 Y130.917 E13.58474
G1 X140.029 Y130.803 E13.59601
G1 X140.134 Y130.391 E13.61723
G1 X140.125 Y130.267 E13.62343
G1 X140.035 Y130.166 E13.63018
G1 X139.214 Y129.722 E13.67674
G1 X138.809 Y129.503 E13.69971
G1 X139.505 Y128.836 E13.74781
G1 X139.564 Y128.726 E13.75404
G1 X139.511 Y128.553 E13.76306
G1 X139.026 Y128.049 E13.79796
G1 X138.919 Y127.937 E13.80569
G1 X139.322 Y126.04 E13.90244
G1 X139.308 Y125.915 E13.90872
G1 X139.224 Y125.823 E13.91493
G1 X139.199 Y125.809 E13.91636
G1 X147.953 Y117.437 E14.52068
G1 X147.962 Y117.417 E14.52177
G1 X147.967 Y117.421 E14.52209
G1 X148.347 Y116.974 E14.55136
G1 X148.435 Y116.87 E14.55816
G1 X148.455 Y116.842 E14.55987
G1 X148.937 Y116.032 E14.6069
G1 X148.952 Y116 E14.60866
G1 X149.225 Y115.267 E14.64769
G1 X149.231 Y115.248 E14.64868
G1 X149.332 Y114.868 E14.6683
G1 X149.339 Y114.827 E14.67037
G1 X149.36 Y114.419 E14.69075
G1 X149.358 Y114.381 E14.69265
G1 X149.302 Y113.992 E14.71226
G1 X149.292 Y113.952 E14.71432
G1 X149.155 Y113.57 E14.73456
G1 X149.138 Y113.534 E14.73655
G1 X148.936 Y113.2 E14.75602
G1 X148.912 Y113.169 E14.75798
G1 X148.638 Y112.871 E14.77818
G1 X148.609 Y112.844 E14.78015
G1 X148.287 Y112.61 E14.80001
G1 X148.252 Y112.59 E14.80202
G1 X147.888 Y112.425 E14.82196
G1 X147.85 Y112.412 E14.82396
G1 X147.392 Y112.306 E14.84742
G1 X147.347 Y112.301 E14.84968
G1 X144.114 Y112.303 E15.01097
G1 X141.653 Y112.305 E15.13375
G1 X141.653 Y111.929 E15.15251
G1 X141.642 Y111.864 E15.1558
G1 X141.24 Y110.7 E15.21724
G1 X147.269 Y110.7 E15.51803
G1 X147.289 Y110.699 E15.51902
G1 X147.684 Y110.66 E15.53883
G1 X147.723 Y110.652 E15.54081
G1 X148.103 Y110.534 E15.56066
G1 X148.14 Y110.518 E15.56268
G1 X148.49 Y110.326 E15.58259
G1 X148.523 Y110.304 E15.58457
G1 X148.831 Y110.044 E15.60468
G1 X148.859 Y110.015 E15.60669
G1 X149.106 Y109.704 E15.6265
G1 X149.127 Y109.671 E15.62846
G1 X149.309 Y109.313 E15.64849
G1 X149.324 Y109.275 E15.65053
G1 X149.459 Y108.788 E15.67574
G1 X149.466 Y108.735 E15.67841
G1 X149.466 Y108.084 E15.71089
G1 X149.465 Y105.955 E15.81711
G1 X149.463 Y105.927 E15.81851
G1 X149.388 Y105.393 E15.84541
G1 X149.368 Y105.252 E15.85251
G1 X149.364 Y105.231 E15.85358
G1 X149.258 Y104.816 E15.87495
G1 X149.251 Y104.795 E15.87605
G1 X148.952 Y104 E15.91843
G1 X148.95 Y103.995 E15.9187
G1 X148.942 Y103.974 E15.91982
G1 X148.927 Y103.943 E15.92154
G1 X148.883 Y103.869 E15.92583
G1 X148.623 Y103.425 E15.9515
G1 X148.612 Y103.408 E15.95251
G1 X148.112 Y102.721 E15.9949
G1 X148.088 Y102.694 E15.99671
G1 X139.196 Y94.191 E16.61051
G1 X139.223 Y94.176 E16.61206
G1 X139.307 Y94.084 E16.61827
G1 X139.321 Y93.96 E16.6245
G1 X138.919 Y92.062 E16.72129
M204 S3000
M205 X10 Y10
G0 F7500 X139.354 Y92.187
M204 S2500
M205 X8 Y8
G1 F2400 X139.799 Y91.719 E16.75351
G1 X139.919 Y91.536 E16.76442
G1 X139.965 Y91.323 E16.7753
G1 X139.931 Y91.107 E16.78621
G1 X139.78 Y90.871 E16.80018
G1 X139.483 Y90.587 E16.82068
G1 X140.226 Y90.181 E16.86293
G1 X140.395 Y90.044 E16.87378
G1 X140.485 Y89.887 E16.88281
G1 X151.69 Y100.601 E17.65625
G1 X151.69 Y119.399 E18.59409
G1 X140.487 Y130.112 E19.36743
G1 X140.472 Y130.064 E19.36994
G1 X140.337 Y129.892 E19.38085
G1 X140.225 Y129.814 E19.38766
G1 X139.482 Y129.412 E19.4298
G1 X139.782 Y129.125 E19.45052
G1 X139.909 Y128.948 E19.46138
G1 X139.965 Y128.737 E19.47228
G1 X139.942 Y128.521 E19.48311
G1 X139.799 Y128.276 E19.49727
G1 X139.354 Y127.814 E19.52927
G1 X139.713 Y126.123 E19.61551
G1 X139.719 Y125.905 E19.62639
G1 X139.709 Y125.876 E19.62792
G1 X148.23 Y117.726 E20.21618
G1 X148.266 Y117.675 E20.2193
G1 X148.272 Y117.68 E20.21969
G1 X148.652 Y117.233 E20.24896
G1 X148.741 Y117.128 E20.25583
G1 X148.799 Y117.047 E20.2608
G1 X149.281 Y116.237 E20.30782
G1 X149.327 Y116.139 E20.31322
G1 X149.6 Y115.406 E20.35224
G1 X149.618 Y115.351 E20.35513
G1 X149.719 Y114.971 E20.37475
G1 X149.738 Y114.848 E20.38096
G1 X149.759 Y114.44 E20.40134
G1 X149.754 Y114.324 E20.40713
G1 X149.698 Y113.935 E20.42674
G1 X149.669 Y113.817 E20.4328
G1 X149.532 Y113.435 E20.45305
G1 X149.48 Y113.327 E20.45903
G1 X149.278 Y112.993 E20.4785
G1 X149.207 Y112.898 E20.48442
G1 X148.933 Y112.6 E20.50462
G1 X148.844 Y112.521 E20.51055
G1 X148.522 Y112.287 E20.53041
G1 X148.417 Y112.226 E20.53647
G1 X148.053 Y112.061 E20.55641
G1 X147.94 Y112.022 E20.56237
G1 X147.482 Y111.916 E20.58583
G1 X147.347 Y111.901 E20.5926
G1 X144.114 Y111.903 E20.7539
G1 X142.049 Y111.905 E20.85692
G1 X142.02 Y111.733 E20.86562
G1 X141.801 Y111.1 E20.89904
G1 X147.269 Y111.1 E21.17184
G1 X147.328 Y111.097 E21.17479
G1 X147.723 Y111.058 E21.19459
G1 X147.842 Y111.034 E21.20065
G1 X148.222 Y110.916 E21.2205
G1 X148.333 Y110.869 E21.22651
G1 X148.683 Y110.677 E21.24643
G1 X148.781 Y110.609 E21.25238
G1 X149.089 Y110.349 E21.27249
G1 X149.172 Y110.264 E21.27842
G1 X149.419 Y109.953 E21.29823
G1 X149.484 Y109.852 E21.30422
G1 X149.666 Y109.494 E21.32426
G1 X149.709 Y109.382 E21.33024
G1 X149.844 Y108.895 E21.35546
G1 X149.866 Y108.735 E21.36351
G1 X149.866 Y108.084 E21.39599
G1 X149.865 Y105.955 E21.50221
G1 X149.859 Y105.872 E21.50636
G1 X149.784 Y105.338 E21.53326
G1 X149.764 Y105.197 E21.54037
G1 X149.751 Y105.132 E21.54367
G1 X149.645 Y104.717 E21.56504
G1 X149.626 Y104.654 E21.56833
G1 X149.327 Y103.859 E21.6107
G1 X149.324 Y103.852 E21.61108
G1 X149.316 Y103.831 E21.6122
G1 X149.271 Y103.738 E21.61736
G1 X149.227 Y103.664 E21.62165
G1 X148.968 Y103.222 E21.64721
G1 X148.935 Y103.173 E21.65016
G1 X148.435 Y102.486 E21.69255
