;FLAVOR:Marlin
;TIME:6521
;Filament used: 7.22207m
;Layer height: 0.2
;MINX:27.193
;MINY:23.016
;MINZ:0.3
;MAXX:203.965
;MAXY:200.037
;MAXZ:8.3
;TARGET_MACHINE.NAME:Anycubic Kobra 2
;Generated with Cura_SteamEngine 5.10.0
G21 ;metric values
G90 ; use absolute coordinates
M82 ; use absolute distances for extrusion
M104 S205 ; set extruder temp
M140 S60 ; set bed temp
M190 S60 ; wait for bed temp
M109 S205 ; wait for extruder temp
G28 ; home all axes
M300 S1318 P266
G1 Z5 F5000 ; lift nozzle
G1 X5 Y0  F3000
G1 Z0.3 ; set nozzle height
G92 E0
G1 X50 Y0 E20 F500 ; Extrude 20mm of filament in a 5cm line 
G92 E0 ; zero the extruded length again 
G1 E-4.5 F4800 ; Retract a little 
G92 E0
G1 X120 F4000 ; Quickly wipe away from the filament line
M117 ; Printing…
G5
M82 ;absolute extrusion mode
G92 E0
G92 E0
G1 F4800 E-2
;LAYER_COUNT:41
;LAYER:0
M107
M204 S3000
M205 X10 Y10
G0 F7500 X29.09 Y33.506 Z0.3
M204 S2500
M205 X8 Y8
;TYPE:SKIRT
G1 F4800 E0
G1 F2400 X30.411 Y32.326 E0.08837
G1 X32.331 Y31.249 E0.1982
G1 X34.596 Y30.866 E0.31281
G1 X45.702 Y30.331 E0.86753
G1 X45.76 Y30.183 E0.87546
G1 X46.584 Y28.749 E0.95797
G1 X47.802 Y27.332 E1.05119
G1 X49.871 Y25.917 E1.17625
G1 X52.212 Y25.37 E1.29619
G1 X63.951 Y25.37 E1.88185
G1 X66.597 Y26.206 E2.02029
G1 X76.486 Y33.205 E2.62472
G1 X78.122 Y35.071 E2.74853
G1 X79.01 Y37.444 E2.87493
G1 X79.138 Y38.113 E2.90892
G1 X79.069 Y40.137 E3.00995
G1 X78.814 Y41.453 E3.07683
G1 X78.042 Y43.259 E3.17482
G1 X76.68 Y44.817 E3.27806
G1 X67.936 Y52.375 E3.85468
G1 X65.541 Y53.509 E3.98688
G1 X53.705 Y54.64 E4.58007
G1 X51.765 Y54.429 E4.67743
G1 X49.522 Y53.504 E4.79848
G1 X47.797 Y51.981 E4.91328
G1 X46.672 Y50.331 E5.01291
G1 X34.812 Y50.845 E5.60516
G1 X33.312 Y50.683 E5.68044
G1 X31.338 Y49.901 E5.78636
G1 X29.46 Y48.497 E5.90335
G1 X27.955 Y46.184 E6.04102
G1 X27.401 Y44.01 E6.15295
G1 X27.341 Y42.091 E6.24873
G1 X27.414 Y41.234 E6.29165
G1 X27.231 Y40.122 E6.34787
G1 X27.193 Y38.228 E6.44238
G1 X27.374 Y36.561 E6.52604
G1 X28.357 Y34.499 E6.64
G1 X29.09 Y33.506 E6.70158
M204 S3000
M205 X10 Y10
G0 F7500 X29.386 Y33.778
M204 S2500
M205 X8 Y8
G1 F2400 X30.644 Y32.654 E6.78574
G1 X32.468 Y31.631 E6.89008
G1 X34.615 Y31.266 E6.99873
G1 X45.994 Y30.718 E7.56709
G1 X46.107 Y30.382 E7.58477
G1 X46.912 Y28.981 E7.66539
G1 X48.071 Y27.633 E7.75408
G1 X50.036 Y26.289 E7.87285
G1 X52.256 Y25.77 E7.98659
G1 X63.891 Y25.77 E8.56706
G1 X66.417 Y26.568 E8.69923
G1 X76.214 Y33.502 E9.29804
G1 X77.773 Y35.28 E9.41601
G1 X78.635 Y37.584 E9.53874
G1 X78.736 Y38.145 E9.56718
G1 X78.676 Y40.061 E9.66282
G1 X78.429 Y41.336 E9.72761
G1 X77.699 Y43.045 E9.82032
G1 X76.418 Y44.514 E9.91756
G1 X67.715 Y52.037 E10.49149
G1 X65.432 Y53.118 E10.61751
G1 X53.71 Y54.238 E11.20499
G1 X51.865 Y54.037 E11.29758
G1 X49.736 Y53.159 E11.41248
G1 X48.099 Y51.714 E11.52141
G1 X46.877 Y49.921 E11.62966
G1 X34.855 Y50.447 E12.23002
G1 X33.408 Y50.291 E12.30263
G1 X31.535 Y49.549 E12.40314
G1 X29.756 Y48.219 E12.51395
G1 X28.327 Y46.023 E12.64467
G1 X27.8 Y43.953 E12.75123
G1 X27.74 Y42.125 E12.84248
G1 X27.817 Y41.219 E12.88785
G1 X27.626 Y40.057 E12.9466
G1 X27.591 Y38.271 E13.03572
G1 X27.765 Y36.671 E13.11601
G1 X28.702 Y34.705 E13.22467
G1 X29.386 Y33.778 E13.28214
M204 S3000
M205 X10 Y10
G0 F7500 X29.682 Y34.05
M204 S2500
M205 X8 Y8
G1 F2400 X30.877 Y32.982 E13.3621
G1 X32.605 Y32.013 E13.46094
G1 X34.634 Y31.666 E13.56364
G1 X46.293 Y31.105 E14.14598
G1 X46.454 Y30.581 E14.17333
G1 X47.24 Y29.213 E14.25204
G1 X48.34 Y27.934 E14.33621
G1 X50.199 Y26.662 E14.44858
G1 X52.304 Y26.17 E14.55643
G1 X63.831 Y26.17 E15.13152
G1 X66.237 Y26.93 E15.2574
G1 X75.942 Y33.799 E15.85059
G1 X77.424 Y35.489 E15.96273
G1 X78.26 Y37.724 E16.08178
G1 X78.335 Y38.171 E16.10439
G1 X78.283 Y39.985 E16.19493
G1 X78.044 Y41.219 E16.25764
G1 X77.356 Y42.831 E16.34508
G1 X76.156 Y44.211 E16.43632
G1 X67.494 Y51.699 E17.00756
G1 X65.323 Y52.727 E17.1274
G1 X53.715 Y53.836 E17.70916
G1 X51.965 Y53.645 E17.79699
G1 X49.95 Y52.814 E17.90573
G1 X48.399 Y51.445 E18.00894
G1 X47.259 Y49.773 E18.1099
G1 X47.146 Y49.509 E18.12423
G1 X34.898 Y50.049 E18.73588
G1 X33.504 Y49.899 E18.80583
G1 X31.732 Y49.197 E18.90092
G1 X30.052 Y47.941 E19.00556
G1 X28.699 Y45.862 E19.12932
G1 X28.199 Y43.895 E19.23057
G1 X28.14 Y42.112 E19.31958
G1 X28.22 Y41.201 E19.3652
G1 X28.021 Y39.992 E19.42633
G1 X27.989 Y38.314 E19.51006
G1 X28.156 Y36.781 E19.58699
G1 X29.047 Y34.911 E19.69034
G1 X29.682 Y34.05 E19.74371
M204 S3000
M205 X10 Y10
G0 F7500 X29.978 Y34.322
M204 S2500
M205 X8 Y8
G1 F2400 X31.11 Y33.31 E19.81947
G1 X32.742 Y32.395 E19.91281
G1 X34.653 Y32.066 E20.00955
G1 X46.592 Y31.492 E20.60588
G1 X46.822 Y30.743 E20.64497
G1 X47.568 Y29.445 E20.71966
G1 X48.609 Y28.235 E20.79929
G1 X50.362 Y27.035 E20.90528
G1 X52.352 Y26.57 E21.00724
G1 X63.77 Y26.57 E21.57688
G1 X66.055 Y27.292 E21.69644
G1 X75.672 Y34.098 E22.28423
G1 X77.075 Y35.698 E22.39039
G1 X77.885 Y37.864 E22.50577
G1 X77.935 Y38.161 E22.52079
G1 X77.89 Y39.909 E22.60803
G1 X77.659 Y41.102 E22.66865
G1 X77.012 Y42.617 E22.75084
G1 X75.894 Y43.908 E22.83604
G1 X67.273 Y51.361 E23.40459
G1 X65.214 Y52.336 E23.51825
G1 X53.72 Y53.434 E24.0943
G1 X52.065 Y53.253 E24.17736
G1 X50.164 Y52.469 E24.27995
G1 X48.701 Y51.178 E24.3773
G1 X47.59 Y49.548 E24.47571
G1 X47.416 Y49.096 E24.49987
G1 X34.941 Y49.651 E25.12287
G1 X33.6 Y49.507 E25.19016
G1 X31.929 Y48.845 E25.27983
G1 X30.348 Y47.663 E25.37831
G1 X29.071 Y45.701 E25.4951
G1 X28.598 Y43.839 E25.59095
G1 X28.54 Y42.099 E25.67781
G1 X28.623 Y41.184 E25.72364
G1 X28.416 Y39.927 E25.7872
G1 X28.387 Y38.357 E25.86554
G1 X28.547 Y36.891 E25.93911
G1 X29.392 Y35.117 E26.03715
G1 X29.978 Y34.322 E26.08642
M204 S3000
M205 X10 Y10
G0 F7500 X30.274 Y34.594
M204 S2500
M205 X8 Y8
G1 F2400 X31.343 Y33.638 E26.15797
G1 X32.879 Y32.777 E26.24582
G1 X34.672 Y32.466 E26.33661
G1 X46.891 Y31.879 E26.94692
G1 X47.19 Y30.905 E26.99775
G1 X47.896 Y29.677 E27.06842
G1 X48.878 Y28.536 E27.14352
G1 X50.527 Y27.407 E27.24322
G1 X52.396 Y26.97 E27.33898
G1 X63.71 Y26.97 E27.90344
G1 X65.872 Y27.653 E28.01656
G1 X75.402 Y34.397 E28.59902
G1 X76.726 Y35.907 E28.69921
G1 X77.51 Y38.004 E28.8109
G1 X77.535 Y38.152 E28.81839
G1 X77.497 Y39.833 E28.90228
G1 X77.274 Y40.985 E28.96082
G1 X76.668 Y42.403 E29.03775
G1 X75.632 Y43.605 E29.11692
G1 X67.052 Y51.023 E29.68278
G1 X65.105 Y51.945 E29.79026
G1 X53.726 Y53.032 E30.36054
G1 X52.165 Y52.861 E30.43889
G1 X50.378 Y52.124 E30.53533
G1 X49.001 Y50.909 E30.62695
G1 X47.947 Y49.363 E30.7203
G1 X47.685 Y48.683 E30.75665
G1 X34.984 Y49.253 E31.39094
G1 X33.696 Y49.115 E31.45557
G1 X32.126 Y48.493 E31.53982
G1 X30.644 Y47.385 E31.63214
G1 X29.443 Y45.54 E31.74197
G1 X28.997 Y43.783 E31.83241
G1 X28.94 Y42.086 E31.91712
G1 X29.026 Y41.17 E31.96302
G1 X28.816 Y39.919 E32.0263
G1 X28.785 Y38.4 E32.1021
G1 X28.938 Y37.001 E32.17232
G1 X29.737 Y35.323 E32.26504
G1 X30.274 Y34.594 E32.31021
M204 S3000
M205 X10 Y10
G0 F7500 X30.573 Y34.864
M204 S2500
M205 X8 Y8
G1 F2400 X31.576 Y33.966 E32.37738
G1 X33.016 Y33.159 E32.45973
G1 X34.691 Y32.866 E32.54457
G1 X47.19 Y32.266 E33.16886
G1 X47.558 Y31.067 E33.23143
G1 X48.224 Y29.909 E33.29808
G1 X49.147 Y28.837 E33.36865
G1 X50.69 Y27.78 E33.46197
G1 X52.444 Y27.37 E33.55183
G1 X63.65 Y27.37 E34.1109
G1 X65.689 Y28.014 E34.21758
G1 X75.132 Y34.696 E34.79471
G1 X76.377 Y36.116 E34.88893
G1 X77.135 Y38.144 E34.99694
G1 X77.104 Y39.757 E35.07743
G1 X76.889 Y40.868 E35.13389
G1 X76.324 Y42.189 E35.20557
G1 X75.37 Y43.302 E35.2787
G1 X66.831 Y50.685 E35.84187
G1 X64.996 Y51.554 E35.94317
G1 X53.732 Y52.63 E36.50769
G1 X52.265 Y52.469 E36.58132
G1 X50.592 Y51.779 E36.6716
G1 X49.301 Y50.64 E36.7575
G1 X48.304 Y49.178 E36.84578
G1 X47.955 Y48.27 E36.89431
G1 X35.027 Y48.855 E37.53995
G1 X33.792 Y48.723 E37.60192
G1 X32.323 Y48.141 E37.68075
G1 X30.94 Y47.107 E37.7669
G1 X29.815 Y45.379 E37.86977
G1 X29.396 Y43.727 E37.9548
G1 X29.34 Y42.072 E38.03741
G1 X29.431 Y41.139 E38.08418
G1 X29.408 Y41.05 E38.08877
G1 X29.216 Y39.91 E38.14644
G1 X29.183 Y38.444 E38.2196
G1 X29.329 Y37.11 E38.28655
G1 X30.08 Y35.532 E38.37374
G1 X30.573 Y34.864 E38.41516
M204 S3000
M205 X10 Y10
G0 F7500 X30.869 Y35.136
M204 S2500
M205 X8 Y8
G1 F2400 X31.81 Y34.294 E38.47816
G1 X33.152 Y33.541 E38.55493
G1 X34.71 Y33.266 E38.63386
G1 X47.489 Y32.653 E39.27214
G1 X47.927 Y31.228 E39.34652
G1 X48.552 Y30.141 E39.40907
G1 X49.416 Y29.138 E39.47512
G1 X50.853 Y28.153 E39.56204
G1 X52.492 Y27.77 E39.64601
G1 X63.589 Y27.77 E40.19964
G1 X65.507 Y28.376 E40.29999
G1 X74.862 Y34.995 E40.87172
G1 X76.028 Y36.325 E40.95997
G1 X76.734 Y38.213 E41.06053
G1 X76.711 Y39.681 E41.13378
G1 X76.504 Y40.751 E41.18815
G1 X75.98 Y41.975 E41.25458
G1 X75.108 Y42.999 E41.32168
G1 X66.61 Y50.347 E41.88216
G1 X64.887 Y51.163 E41.97727
G1 X53.738 Y52.228 E42.53603
G1 X52.365 Y52.077 E42.60494
G1 X50.806 Y51.434 E42.68908
G1 X49.601 Y50.371 E42.76924
G1 X48.661 Y48.993 E42.85246
G1 X48.224 Y47.857 E42.91319
G1 X35.069 Y48.457 E43.57018
G1 X33.888 Y48.331 E43.62943
G1 X32.52 Y47.789 E43.70284
G1 X31.236 Y46.829 E43.78283
G1 X30.187 Y45.218 E43.87874
G1 X29.795 Y43.671 E43.95836
G1 X29.738 Y42.111 E44.03624
G1 X29.836 Y41.102 E44.08681
G1 X29.802 Y40.982 E44.09304
G1 X29.616 Y39.9 E44.14781
G1 X29.581 Y38.488 E44.21827
G1 X29.72 Y37.219 E44.28196
G1 X30.425 Y35.738 E44.3638
G1 X30.869 Y35.136 E44.40112
M204 S3000
M205 X10 Y10
G0 F7500 X31.168 Y35.406
M204 S2500
M205 X8 Y8
G1 F2400 X32.044 Y34.622 E44.45977
G1 X33.289 Y33.923 E44.531
G1 X34.729 Y33.666 E44.60398
G1 X47.788 Y33.04 E45.25624
G1 X48.295 Y31.39 E45.34236
G1 X48.88 Y30.373 E45.40089
G1 X49.685 Y29.439 E45.46241
G1 X51.016 Y28.526 E45.54293
G1 X52.54 Y28.17 E45.62101
G1 X63.529 Y28.17 E46.16926
G1 X65.324 Y28.737 E46.26317
G1 X74.592 Y35.294 E46.82957
G1 X75.679 Y36.534 E46.91184
G1 X76.333 Y38.283 E47.005
G1 X76.311 Y39.675 E47.07446
G1 X76.12 Y40.631 E47.12309
G1 X75.636 Y41.761 E47.18442
G1 X74.846 Y42.696 E47.24549
G1 X66.386 Y50.011 E47.80346
G1 X64.78 Y50.772 E47.89213
G1 X53.744 Y51.826 E48.44522
G1 X52.465 Y51.685 E48.50941
G1 X51.02 Y51.089 E48.5874
G1 X49.901 Y50.102 E48.66184
G1 X49.018 Y48.808 E48.73999
G1 X48.644 Y47.836 E48.79195
G1 X48.569 Y47.44 E48.81206
G1 X35.111 Y48.059 E49.48419
G1 X33.984 Y47.939 E49.54074
G1 X32.717 Y47.437 E49.60873
G1 X31.532 Y46.551 E49.68255
G1 X30.559 Y45.057 E49.7715
G1 X30.194 Y43.615 E49.84571
G1 X30.136 Y42.149 E49.9189
G1 X30.229 Y41.178 E49.96757
G1 X30.249 Y41.08 E49.97256
G1 X30.196 Y40.913 E49.9813
G1 X30.016 Y39.889 E50.03317
G1 X29.979 Y38.532 E50.1009
G1 X30.111 Y37.328 E50.16132
G1 X30.768 Y35.947 E50.23762
G1 X31.168 Y35.406 E50.27119
M204 S3000
M205 X10 Y10
G0 F7500 X31.466 Y35.676
M204 S2500
M205 X8 Y8
G1 F2400 X32.278 Y34.95 E50.32553
G1 X33.426 Y34.305 E50.39123
G1 X34.748 Y34.066 E50.45825
G1 X48.181 Y33.423 E51.12919
G1 X48.19 Y33.093 E51.14566
G1 X48.664 Y31.551 E51.22615
G1 X49.208 Y30.605 E51.28059
G1 X49.954 Y29.74 E51.33758
G1 X51.181 Y28.898 E51.41182
G1 X52.584 Y28.57 E51.4837
G1 X63.468 Y28.57 E52.02671
G1 X65.142 Y29.099 E52.11429
G1 X74.322 Y35.593 E52.6753
G1 X75.33 Y36.743 E52.75159
G1 X75.932 Y38.353 E52.83735
G1 X75.912 Y39.633 E52.90121
G1 X75.736 Y40.511 E52.94589
G1 X75.292 Y41.548 E53.00217
G1 X74.54 Y42.438 E53.0603
G1 X66.164 Y49.674 E53.61252
G1 X64.673 Y50.381 E53.69484
G1 X53.75 Y51.424 E54.24227
G1 X52.564 Y51.293 E54.3018
G1 X51.235 Y50.745 E54.37352
G1 X50.203 Y49.835 E54.44217
G1 X49.374 Y48.619 E54.51559
G1 X49.017 Y47.692 E54.56515
G1 X48.903 Y47.024 E54.59896
G1 X35.153 Y47.661 E55.28568
G1 X34.08 Y47.547 E55.33952
G1 X32.914 Y47.085 E55.40209
G1 X31.828 Y46.273 E55.46974
G1 X30.931 Y44.896 E55.55173
G1 X30.592 Y43.558 E55.62059
G1 X30.536 Y42.133 E55.69174
G1 X30.627 Y41.218 E55.73762
G1 X30.665 Y41.058 E55.74582
G1 X30.59 Y40.842 E55.75723
G1 X30.416 Y39.877 E55.80615
G1 X30.377 Y38.576 E55.87108
G1 X30.502 Y37.437 E55.92825
G1 X31.111 Y36.156 E55.99901
G1 X31.466 Y35.676 E56.0288
M204 S3000
M205 X10 Y10
G0 F7500 X31.761 Y35.949
M204 S2500
M205 X8 Y8
G1 F2400 X32.512 Y35.278 E56.07904
G1 X33.565 Y34.686 E56.13931
G1 X34.767 Y34.466 E56.20027
G1 X48.599 Y33.804 E56.89115
G1 X48.572 Y33.21 E56.92081
G1 X49.032 Y31.713 E56.99894
G1 X49.536 Y30.837 E57.04936
G1 X50.223 Y30.041 E57.10182
G1 X51.346 Y29.27 E57.16978
G1 X52.628 Y28.97 E57.23547
G1 X63.408 Y28.97 E57.77329
G1 X64.959 Y29.46 E57.85444
G1 X74.052 Y35.892 E58.41011
G1 X74.981 Y36.952 E58.48043
G1 X75.531 Y38.423 E58.55878
G1 X75.513 Y39.591 E58.61706
G1 X75.352 Y40.391 E58.65777
G1 X74.948 Y41.335 E58.709
G1 X74.234 Y42.18 E58.76419
G1 X65.943 Y49.336 E59.31059
G1 X64.565 Y49.99 E59.38669
G1 X53.756 Y51.022 E59.92841
G1 X52.663 Y50.901 E59.98327
G1 X51.45 Y50.401 E60.04873
G1 X50.503 Y49.566 E60.11172
G1 X49.731 Y48.434 E60.18007
G1 X49.404 Y47.585 E60.22546
G1 X49.237 Y46.607 E60.27496
G1 X35.195 Y47.263 E60.97629
G1 X34.176 Y47.155 E61.02741
G1 X33.111 Y46.733 E61.08456
G1 X32.124 Y45.995 E61.14605
G1 X31.303 Y44.735 E61.22107
G1 X30.99 Y43.501 E61.28459
G1 X30.936 Y42.117 E61.35369
G1 X31.025 Y41.259 E61.39672
G1 X31.085 Y41.04 E61.40805
G1 X30.983 Y40.769 E61.4225
G1 X30.816 Y39.864 E61.46841
G1 X30.775 Y38.62 E61.53051
G1 X30.893 Y37.546 E61.58441
G1 X31.456 Y36.361 E61.64987
G1 X31.761 Y35.949 E61.67544
M204 S3000
M205 X10 Y10
G0 F7500 X32.061 Y36.216
M204 S2500
M205 X8 Y8
G1 F2400 X32.743 Y35.607 E61.72106
G1 X33.704 Y35.067 E61.77605
G1 X34.786 Y34.866 E61.83096
G1 X49.018 Y34.185 E62.54181
G1 X48.975 Y33.258 E62.5881
G1 X49.399 Y31.878 E62.66013
G1 X49.866 Y31.067 E62.70682
G1 X50.492 Y30.342 E62.75461
G1 X51.511 Y29.642 E62.81628
G1 X52.672 Y29.37 E62.87578
G1 X63.348 Y29.37 E63.4084
G1 X64.776 Y29.821 E63.48312
G1 X73.782 Y36.191 E64.03346
G1 X74.632 Y37.161 E64.0978
G1 X75.13 Y38.493 E64.16875
G1 X75.114 Y39.549 E64.22144
G1 X74.968 Y40.271 E64.25819
G1 X74.604 Y41.122 E64.30437
G1 X73.928 Y41.922 E64.35662
G1 X65.723 Y48.998 E64.89717
G1 X64.457 Y49.599 E64.96709
G1 X53.762 Y50.62 E65.50309
G1 X52.762 Y50.509 E65.55328
G1 X51.663 Y50.056 E65.61259
G1 X50.804 Y49.299 E65.66971
G1 X50.088 Y48.249 E65.73311
G1 X49.791 Y47.478 E65.77434
G1 X49.571 Y46.19 E65.83952
G1 X35.237 Y46.865 E66.55544
G1 X34.272 Y46.763 E66.60386
G1 X33.308 Y46.381 E66.65559
G1 X32.42 Y45.717 E66.71091
G1 X31.675 Y44.574 E66.77897
G1 X31.388 Y43.444 E66.83714
G1 X31.336 Y42.102 E66.90414
G1 X31.423 Y41.302 E66.94429
G1 X31.51 Y41.019 E66.95906
G1 X31.376 Y40.695 E66.97655
G1 X31.216 Y39.849 E67.01951
G1 X31.173 Y38.664 E67.07867
G1 X31.284 Y37.655 E67.12931
G1 X31.799 Y36.57 E67.18923
G1 X32.061 Y36.216 E67.2112
M204 S3000
M205 X10 Y10
G0 F7500 X32.361 Y36.483
M204 S2500
M205 X8 Y8
G1 F2400 X32.974 Y35.936 E67.25219
G1 X33.843 Y35.448 E67.30191
G1 X34.805 Y35.266 E67.35076
G1 X49.436 Y34.566 E68.08154
G1 X49.378 Y33.306 E68.14447
G1 X49.766 Y32.043 E68.21038
G1 X50.196 Y31.297 E68.25334
G1 X50.761 Y30.643 E68.29646
G1 X51.677 Y30.014 E68.3519
G1 X52.716 Y29.77 E68.40514
G1 X63.287 Y29.77 E68.93253
G1 X64.594 Y30.183 E69.00092
G1 X73.512 Y36.49 E69.54586
G1 X74.283 Y37.37 E69.60423
G1 X74.729 Y38.563 E69.66777
G1 X74.715 Y39.506 E69.71482
G1 X74.584 Y40.151 E69.74766
G1 X74.26 Y40.909 E69.78879
G1 X73.622 Y41.664 E69.8381
G1 X65.503 Y48.66 E70.37279
G1 X64.349 Y49.208 E70.43653
G1 X53.768 Y50.218 E70.96682
G1 X52.861 Y50.117 E71.01235
G1 X51.876 Y49.711 E71.0655
G1 X51.105 Y49.032 E71.11676
G1 X50.444 Y48.063 E71.17528
G1 X50.179 Y47.373 E71.21215
G1 X49.997 Y46.323 E71.26532
G1 X49.97 Y45.77 E71.29294
G1 X35.279 Y46.467 E72.0267
G1 X34.368 Y46.371 E72.0724
G1 X33.505 Y46.029 E72.11871
G1 X32.716 Y45.439 E72.16787
G1 X32.047 Y44.413 E72.22897
G1 X31.786 Y43.386 E72.28184
G1 X31.736 Y42.087 E72.3467
G1 X31.82 Y41.347 E72.38385
G1 X31.94 Y41.001 E72.40212
G1 X31.769 Y40.618 E72.42305
G1 X31.616 Y39.833 E72.46295
G1 X31.571 Y38.708 E72.51912
G1 X31.675 Y37.763 E72.56655
G1 X32.141 Y36.781 E72.62078
G1 X32.361 Y36.483 E72.63926
M204 S3000
M205 X10 Y10
G0 F7500 X32.627 Y36.782
M204 S2500
M205 X8 Y8
G1 F2400 X33.208 Y36.264 E72.67809
